!!!!SEGMENT: pl-wumfc--n2100--001-006_dobrzynski-ignacy-feliks--monbar-czyli-flibustierowie-partytura-fortepianowa-akt-i-5-duettino-scena-recit-ativo-et-cavatina.krn
!!!cenid: 18xx:4189
!!!COM: Dobrzyński, Ignacy Feliks
!!!COM-rismID: pe30020642
!!!CDT: 1807/02/15-1867/10/09
!!!CNT: Polish
!!!OPR: Monbar czyli Flibustierowie - partytura fortepianowa
!!!OTL: Akt I - 5. Duettino scena recit[ativo]: et cavatina
!!!OMV: 006
!!!PDT: 1863
!!!AGN: Secular; Opera
!!!YEC: Copyright 2022 Narodowy Instytut Fryderyka Chopina (https://polishscores.org)
!!!YEM: License CC-BY-4.0 (https://creativecommons.org/licenses/by/4.0)
!!!SMS-siglum: PL-Wumfc
!!!SMS-shelfmark: N2100
!!!SMS-shelfwork: 001-006 M
!!!SMS-variant:
!!!SMS-altvar:
!!!NIFC-rismSourceID: 1001123412
!!!NIFC-rismChildID: 1001123412
!!!NIFC-islandoraID: pl-wumfc:1659
!!!URL-pdf-islandora: https://repozytorium.nifc.pl/islandora/object/pl-wumfc%3A1659/datastream/PDF/view
!!!URL-scan: https://polish.musicsources.pl/pl/lokalizacje/galeria/druki-muzyczne/11863/50 @EN{Scan on Polish Music Sources Website} @PL{Skany w portalu Dziedzictwo Muzyki Polskiej w otwartym dostępie}
!!!IIIF:
!!!ONB-nifc: Skany 0050-0056
!!!OMD: Allegro vivace.
!!!AIN: 1 piano 1 vox
!!!key: c
**kern	**kern	**dynam	**kern	**text	**dynam
*part2	*part2	*	*part1	*	*
*staff3	*staff2	*	*staff1	*	*
*I"PIANO.	*I"PIANO.	*	*	*	*
*	*I'	*	*I'	*	*
*Ipiano	*Ipiano	*	*Ivox	*	*
*ICklav	*ICklav	*	*ICvox	*	*
*IGacmp	*IGacmp	*	*IGsolo	*	*
*clefF4	*clefG2	*	*clefG2	*	*
*kcancel	*kcancel	*	*kcancel	*	*
*k[b-e-a-]	*k[b-e-a-]	*	*k[b-e-a-]	*	*
*c:	*c:	*	*c:	*	*
*M4/4	*M4/4	*	*M4/4	*	*
*met(c)	*met(c)	*	*met(c)	*	*
=1	=1	=1	=1	=1	=1
*tremolo	*	*	*	*	*
8GL 8E- 8C\	4.c/	f	1r	.	.
8G 8E- 8C\	.	.	.	.	.
8G 8E- 8C\	.	.	.	.	.
8GJ 8E- 8C\	(16Bn/LL	.	.	.	.
.	16c/JJ)	.	.	.	.
8GL 8E- 8C\	(8e-/L	.	.	.	.
8G 8E- 8C\	16d/L	.	.	.	.
.	16e-/JJ)	.	.	.	.
8G 8E- 8C\	(8g/L	.	.	.	.
8GJ 8E- 8C\	16f#X/L	.	.	.	.
.	16g/JJ)	.	.	.	.
=2	=2	=2	=2	=2	=2
8GL 8E- 8C\	(8cc\L	.	1r	.	.
8G 8E- 8C\	16bn\L	.	.	.	.
.	16cc\JJ)	.	.	.	.
8G 8E- 8C\	(8ee-\L	.	.	.	.
8GJ 8E- 8C\	16dd\L	.	.	.	.
.	16ee-\JJ)	.	.	.	.
8GL 8E- 8C\	(8gg\L	.	.	.	.
8G 8E- 8C\	16ff#X\L	.	.	.	.
.	16gg\JJ)	.	.	.	.
8G 8E- 8C\	(8ccc\L	.	.	.	.
8GJ 8E- 8C\	16bbn\L	.	.	.	.
.	16ccc\JJ)	.	.	.	.
*Xtremolo	*	*	*	*	*
=3	=3	=3	=3	=3	=3
!	!	!	!LO:TX:a:B:t=DONA MARYA.:rj	!	!
4An: 4E-: 4C: 4FF#X:/	4eee-\	.	4ee-\	Oj-	.
4r	4r	.	8cc\	-cze	.
.	.	.	8cc\	to	.
2r	2r	.	4cc\	zby-	.
.	.	.	8an/	-tnia	.
.	.	.	8a/	z_twéj	.
!!LO:LB:g=original
=4	=4	=4	=4	=4	=4
1r	1r	.	2ee-\	stro-	.
.	.	.	4dd\	-ny	.
.	.	.	4an/	o-	.
=5	=5	=5	=5	=5	=5
.	.	.	4qqcc/	.	.
*tremolo	*	*	*	*	*
8DL 8BB- 8GG\	4.G</	.	2b-\	-fiara.	.
8D 8BB- 8GG\	.	.	.	.	.
8D 8BB- 8GG\	.	.	.	.	.
8DJ 8BB- 8GG\	(<16F#X</LL	.	.	.	.
.	16G</JJ)	.	.	.	.
8DL 8BB- 8GG\	(<8B-</L	.	2r	.	.
8D 8BB- 8GG\	16An</L	.	.	.	.
.	16B-</JJ)	.	.	.	.
8D 8BB- 8GG\	(8d/L	.	.	.	.
8DJ 8BB- 8GG\	16c#X/L	.	.	.	.
.	16d/JJ)	.	.	.	.
=6	=6	=6	=6	=6	=6
8DL 8BB- 8GG/	(8g/L	.	1r	.	.
8D 8BB- 8GG/	16f#X/L	.	.	.	.
.	16g/JJ)	.	.	.	.
8D 8BB- 8GG/	(8b-/L	.	.	.	.
8DJ 8BB- 8GG/	16an/L	.	.	.	.
.	16b-/JJ)	.	.	.	.
8DL 8BB- 8GG/	(8dd\L	.	.	.	.
8D 8BB- 8GG/	16cc#X\L	.	.	.	.
.	16dd\JJ)	.	.	.	.
8D 8BB- 8GG/	(8gg\L	.	.	.	.
8DJ 8BB- 8GG/	16ff#X\L	.	.	.	.
.	16gg\JJ)	.	.	.	.
*Xtremolo	*	*	*	*	*
=7	=7	=7	=7	=7	=7
4En: 4BB-: 4GG: 4CC#X:/	4bb-\	.	2.een\	Cie-	.
4r	4r	.	.	.	.
2r	2r	.	.	.	.
.	.	.	8dd\	-bież	.
.	.	.	8dd\	ja	.
!!LO:LB:g=original
=8	=8	=8	=8	=8	=8
1r	1r	.	4cc#X\	wi-	.
.	.	.	8b-\	-dzę	.
.	.	.	8b-\	wtem	.
.	.	.	4an/	gnie-	.
.	.	.	8en/	-ździe	.
.	.	.	8e/	kor-	.
=9	=9	=9	=9	=9	=9
*tremolo	*	*	*	*	*
!LO:SIC:v:o=8A-L 8F 8D\	!	!	!	!	!
8AL 8F 8D\	(8an/L	f	4g/	-sa-	.
!LO:SIC:v:o=8A- 8F 8D\	!	!	!	!	!
8A 8F 8D\	16g#X/L	.	.	.	.
.	16a/JJ)	.	.	.	.
!LO:SIC:v:o=8A- 8F 8D\	!	!	!	!	!
8A 8F 8D\	(8dd\L	.	8f/	-rzy	.
!LO:SIC:v:o=8A-J 8F 8D\	!	!	!	!	!
8AJ 8F 8D\	16cc#X\L	.	8r	.	.
.	16dd\JJ)	.	.	.	.
!LO:SIC:v:o=8A-L 8F 8D\	!	!	!	!	!
8AL 8F 8D\	4ff\	.	4dd\	Oj-	.
!LO:SIC:v:o=8A- 8F 8D\	!	!	!	!	!
8A 8F 8D\	.	.	.	.	.
!LO:SIC:v:o=8A- 8F 8D\	!	!	!	!	!
8A 8F 8D\	4r	.	8dd\	-cze	.
!LO:SIC:v:o=8A-J 8F 8D\	!	!	!	!	!
8AJ 8F 8D\	.	.	8dd\	to	.
=10	=10	=10	=10	=10	=10
8FL 8D 8BB-\	(8ff\L	.	4ff\	zby-	.
8F 8D 8BB-\	16een\L	.	.	.	.
.	16ff\JJ)	.	.	.	.
8F 8D 8BB-\	(8bb-\L	.	8dd\	-tnia	.
8F 8D 8BB-\	16aan\L	.	8dd\	z_twéj	.
.	16bb-\JJ)	.	.	.	.
8F 8D 8BB-\	4ddd\	.	4dd\	stro-	.
8FJ 8D 8BB-\	.	.	.	.	.
*Xtremolo	*	*	*	*	*
8FL 8D 8BB-\	4r	.	8dd\	-ny	.
8FJ 8D 8BB-\	.	.	8dd\	o-	.
=11	=11	=11	=11	=11	=11
*tremolo	*	*	*	*	*
!	!LO:TX:b:Bi:t=cres-:problem:dynamics with extension lines	!LO:HP:t=cres	!	!	!
8FL 8D 8AAn/	(8aan\L	<	4ff\	-fia-	.
8F 8D 8AA/	16gg#X\L	.	.	.	.
.	16aa\JJ)	.	.	.	.
8F 8D 8AA/	(8ddd\L	.	8dd\	-ra	.
8FJ 8D 8AA/	16ccc#X\L	.	8r	.	.
.	16ddd\JJ)	.	.	.	.
8FL 8D 8AA/	4fff\	.	4dd\	Cie-	.
8F 8D 8AA/	.	.	.	.	.
8F 8D 8AA/	4r	.	8dd\	-bież	.
8FJ 8D 8AA/	.	.	8dd\	ja	.
!!LO:LB:g=original
=12	=12	=12	=12	=12	=12
*	*8va	*	*	*	*
8FL 8D 8GG#X/	(8fff\L	.	4ff\	wi-	.
8F 8D 8GG#/	16eeen\L	.	.	.	.
.	16fff\JJ)	.	.	.	.
8F 8D 8GG#/	(8ddd\L	.	8dd\	-dzę	.
8FJ 8D 8GG#/	16ccc#X\L	.	8dd\	wtem	.
.	16ddd\JJ)	.	.	.	.
8FL 8D 8GG#/	(8fff\L	.	4ff\	gnieź-	.
8F 8D 8GG#/	16eee\L	.	.	.	.
.	16fff\JJ)	.	.	.	.
8F 8D 8GG#/	(8ddd\L	.	8dd\	-dzie	.
8FJ 8D 8GG#/	16ccc#\L	.	8dd\	kor-	.
.	16ddd\JJ)	[[	.	.	.
=13	=13	=13	=13	=13	=13
8EnL 8C#X 8AAn/	(8aaan\L	ff	1aan	-sa-	.
8E 8C# 8AA/	16ggg#X\L	.	.	.	.
.	16aaa\JJ)	.	.	.	.
8E 8C# 8AA/	(8eeen\L	.	.	.	.
8EJ 8C# 8AA/	16ddd#X\L	.	.	.	.
.	16eee\JJ)	.	.	.	.
8EL 8C# 8AA/	(8ccc#X\L	.	.	.	.
8E 8C# 8AA/	16bb#X\L	.	.	.	.
.	16ccc#\JJ)	.	.	.	.
!	!LO:SIC:v:o=(8aa-/L	!	!	!	!
8E 8C# 8AA/	(8aa/L	.	.	.	.
8EJ 8C# 8AA/	16gg#X/L	.	.	.	.
!	!LO:SIC:v:o=16aa-/JJ)	!	!	!	!
.	16aa/JJ)	.	.	.	.
*	*X8va	*	*	*	*
=14	=14	=14	=14	=14	=14
8EnL 8C#X 8AAn/	(8een\L	.	4an/	-rzy	.
8E 8C# 8AA/	16dd#X\L	.	.	.	.
.	16ee\JJ)	.	.	.	.
8E 8C# 8AA/	(8aan\L	.	4r	.	.
8EJ 8C# 8AA/	16gg#X\L	.	.	.	.
.	16aa\JJ)	.	.	.	.
8EL 8C# 8AA/	(8ee\L	.	2r	.	.
8E 8C# 8AA/	16dd#\L	.	.	.	.
.	16ee\JJ)	.	.	.	.
8E 8C# 8AA/	(8cc#X\L	.	.	.	.
8EJ 8C# 8AA/	16b#X\L	.	.	.	.
.	16cc#\JJ)	.	.	.	.
*Xtremolo	*	*	*	*	*
=15	=15	=15	=15	=15	=15
4En 4C#X 4AAn/	4an/	.	1r	.	.
4AA 4AAAn/	4a 4An/	.	.	.	.
4AA 4AAA/	4a 4A/	.	.	.	.
4AA 4AAA/	4a 4A/	.	.	.	.
=16	=16	=16	=16	=16	=16
4BB- 4BBB-/	4b- 4B-/	.	1r;	.	.
4BBn 4BBBn/	4bn 4Bn/	.	.	.	.
4C 4CC/	4cc 4c/	.	.	.	.
8C#X 8CC#X/	8cc#X 8c#X/	.	.	.	.
8r;	8r;	.	.	.	.
!!LO:PB:g=original
=17||	=17||	=17||	=17||	=17||	=17||
!!!OMD: Andante sostenuto.
*	*	*	*clefF4	*	*
*k[b-]	*k[b-]	*	*k[b-]	*	*
!LO:TX:a:t=Clarinetto Basso	!	!	!LO:TX:a:B:t=DON ALONZO.	!	!
1rEE	(2D</	.	4.D\	Mógł-	.
.	.	.	8D\	-żem	.
.	4AA</)	.	(>4AA/	cię	.
!	!	!LO:HP:b=2	!	!	!
.	(16GG#X</LL	<	16GG#X/LL	.	<
.	16AA</	.	16AA/	.	.
.	16D</	.	16D/	.	.
.	16E</JJ	[	16E/JJ)	.	[[
=18	=18	=18	=18	=18	=18
!	!	!LO:HP:b=2	!	!	!
1rGG	4.F</	>	(4.F\	w_stra-	>
.	8E</	]	8E\)	.	.
.	4D</)	.	4D\	-sznéj	]
.	(<16C#X</LL	.	(16C#X/LL	mo-	<
.	16D</	.	16D/JJ)	.	.
.	16F</	.	16F\	-cy	.
.	16G</JJ)	.	16G\	zo-	[[
=19	=19	=19	=19	=19	=19
!	!	!LO:DY:b=2	!	!	!
1rGG	[4A</	f	[4A\	-sta-	f
.	.	.	.	.	>
!	!LO:TUP:a:problem:klamra łukowa	!LO:HP:b=2	!LO:TUP:a:problem:klamra łukowa	!	!
.	12A</L]	>	12A\L]	.	.
.	12G</	.	12G\	.	.
.	12F</J	]	12F\J	.	.
!	!LO:TUP:a:problem:klamra łukowa	!	!LO:TUP:a:problem:klamra łukowa	!	!
.	12F</L	.	12F\L	.	]
.	12E</	.	12E\	.	.
.	12D</J	.	12D\J	.	.
*	*	*	*Xbrackettup	*	*
!	!LO:TUP:a:problem:klamra łukowa	!LO:HP:b=2	!LO:TUP:a	!	!
.	12D</L	<	(12D/L	-wić	<
.	12C</	.	12C/J)	.	.
.	12BB-</J	[[	12BB-/	Mon-	[[
!!LO:LB:g=original
=20	=20	=20	=20	=20	=20
!	!	!LO:HP:a=2	!	!	!
!	!	!LO:DY:a=2	!	!	!
(2BB- (2BBB-/	4r	fz >	2BB-^>/	-ba-	.
*	*tremolo	*	*	*	*
!	!LO:TX:a:i:t=trem&colon;	!	!	!	!
.	32bb-LLL 32ee 32cc^<\	.	.	.	.
.	32bb- 32ee 32cc\	.	.	.	.
.	32bb- 32ee 32cc\	.	.	.	.
.	32bb- 32ee 32cc\	.	.	.	.
.	32bb- 32ee 32cc\	.	.	.	.
.	32bb- 32ee 32cc\	.	.	.	.
.	32bb- 32ee 32cc\	.	.	.	.
.	32bb-JJJ 32ee 32cc\	.	.	.	.
*	*Xtremolo	*	*	*	*
8AA 8AAA/))	8aa#X 8ff 8cc\	]	4AA/	-ra	.
8r	8r	.	.	.	.
4r	4r	.	8r	.	.
.	.	.	8AA/	Lecz	.
=21	=21	=21	=21	=21	=21
1rEE	(2D</	.	2D\	na-	.
.	4AA</)	.	4AA/	-szych	.
.	(16GG#X</LL	<	(16GG#X/LL	smu-	<
.	16AA</	.	16AA/	.	.
.	16D</	.	16D/JJ)	.	.
.	16E</JJ	[[	16E\	-tnych	[[
=22	=22	=22	=22	=22	=22
1rGG	4.F</	>	(4.F\	lo-	>
.	8E</	.	8E\)	.	.
.	4D</)	]	4D\	-sów	]
.	(<16C#X</LL	<	16C#X/	sza-	.
.	16D</	.	16D\	-la	<
.	16F</	.	16F\	się	.
.	16A</JJ)	[[	16A\	prze-	[[
!!LO:LB:g=original
=23	=23	=23	=23	=23	=23
1rGG	[4d</	fz	[4d\	-wa-	f
.	.	>	.	.	>
!	!LO:TUP:a:problem:klamra łukowa	!	!LO:TUP:a:problem:klamra łukowa	!	!
.	12d</L]	.	12d\L]	.	.
.	12G#X</	.	12G#X\	.	.
.	12A</J	]	12A\J	.	]
!	!LO:TUP:a:problem:klamra łukowa	!	!	!	!
.	12B-</L	.	12B-\L	.	.
.	12A</	.	12A\	.	.
.	12E</J	.	12E\J	.	.
!	!LO:TUP:a:problem:klamra łukowa	!	!LO:TUP:a:problem:klamra łukowa	!	!
.	12G#</L	<	12G#\L	-ża	.
.	12F</	.	12F\J	.	.
.	12D</J	[[	12D\	prze-	.
=24	=24	=24	=24	=24	=24
(2D-X (2DD-X^>/	4r	.	2D-X\	-wa-	.
*	*tremolo	*	*	*	*
!	!LO:TX:a:i:t=trem&colon;	!	!	!	!
.	32dddLLL 32ggn 32ee\	.	.	.	.
.	32ddd 32gg 32ee\	.	.	.	.
.	32ddd 32gg 32ee\	.	.	.	.
.	32ddd 32gg 32ee\	.	.	.	.
.	32ddd 32gg 32ee\	.	.	.	.
.	32ddd 32gg 32ee\	.	.	.	.
.	32ddd 32gg 32ee\	.	.	.	.
.	32dddJJJ 32gg 32ee\	.	.	.	.
*	*Xtremolo	*	*	*	*
4C 4CC/))	4ccc 4aa 4ee\	.	4Cn/	-ża	.
4r	4r	.	4r	.	.
=25	=25	=25	=25	=25	=25
!	!	!	!LO:TX:a:i:t=(tajemniczo)	!	!
([4EE/	2r	<	4r	.	.
16EE/LL]	.	.	8r	.	.
16GG/	.	.	.	.	.
16BBn/	.	.	8G\	do	.
16C/JJ)	.	[	.	.	.
*	*tremolo	*	*	*	*
!	!LO:TX:a:i:t=trem&colon;	!	!	!	!
(4D-X/	32ggLLL 32ee 32cc\	>	4G\	wier-	.
.	32gg 32ee 32cc\	.	.	.	.
.	32gg 32ee 32cc\	.	.	.	.
.	32gg 32ee 32cc\	.	.	.	.
.	32gg 32ee 32cc\	.	.	.	.
.	32gg 32ee 32cc\	.	.	.	.
.	32gg 32ee 32cc\	.	.	.	.
.	32ggJJJ 32ee 32cc\	.	.	.	.
8C/)	16ggLL 16ee 16cc\	.	4G\	-nych	.
.	16ggJ 16ee 16cc\	]	.	.	.
*	*Xtremolo	*	*	*	*
8r	8ggJ 8ee\	.	.	.	.
!!LO:LB:g=original
=26	=26	=26	=26	=26	=26
([4FF/	2r	<	4G\	mo-	.
16FF/LL]	.	.	8F\	-ich	.
16AA-X/	.	.	.	.	.
16BBn/	.	.	8A-X\	wy-	.
16C/JJ)	.	[	.	.	.
*	*tremolo	*	*	*	*
!	!LO:TX:a:i:t=trem&colon;	!	!	!	!
(4D-X/	32ff-XLLL 32dd^<\	>	4A-\	-sła-	.
.	32ff- 32dd\	.	.	.	.
.	32ff- 32dd\	.	.	.	.
.	32ff- 32dd\	.	.	.	.
.	32ff- 32dd\	.	.	.	.
.	32ff- 32dd\	.	.	.	.
.	32ff- 32dd\	.	.	.	.
.	32ff-JJJ 32dd\	.	.	.	.
8C/)	16ff-LL 16dd\	]	8A-\	-łem	.
.	16ff-J 16dd\	.	.	.	.
*	*Xtremolo	*	*	*	*
8r	8ff-\J	.	8A-\	już	.
=27	=27	=27	=27	=27	=27
([4FF#X/	2r	<	4An\	goń-	.
16FF#/LL]	.	.	8A\	-ce	.
16AA/	.	.	.	.	.
16C#X/	.	.	8r	.	.
16D/JJ)	.	[	.	.	.
*	*tremolo	*	*	*	*
!	!LO:TX:a:i:t=trem&colon;	!	!	!	!
(4E-X\	32aaLLL 32ff 32dd#X^<\	>	4A\	wkrót-	.
.	32aa 32ff 32dd#\	.	.	.	.
.	32aa 32ff 32dd#\	.	.	.	.
.	32aa 32ff 32dd#\	.	.	.	.
.	32aa 32ff 32dd#\	.	.	.	.
.	32aa 32ff 32dd#\	.	.	.	.
.	32aa 32ff 32dd#\	.	.	.	.
.	32aa 32ff 32dd#\	.	.	.	.
8D\)	32aa 32ff 32dd#\	]	8A\	-ce	.
.	32aa 32ff 32dd#\	.	.	.	.
.	32aa 32ff 32dd#\	.	.	.	.
.	32aa 32ff 32dd#\	.	.	.	.
8r	32aa 32ff 32dd#\	.	8A\	Al-	.
.	32aa 32ff 32dd#\	.	.	.	.
.	32aa 32ff 32dd#\	.	.	.	.
.	32aaJJJ 32ff 32dd#\	.	.	.	.
*	*Xtremolo	*	*	*	*
=28	=28	=28	=28	=28	=28
([4GG/	2r	.	4An\	-va-	.
.	.	<	.	.	.
16GG/LL]	.	.	8G\	-rez	.
16BB-/	.	.	.	.	.
16C#X/	.	.	16G\	z_téj	.
16D/JJ)	.	[	16B-\	nas	.
*	*tremolo	*	*	*	*
!	!LO:TX:a:i:t=trem&colon;	!	!	!	!
(4E-X\	32ggLLL 32ee^<\	>	8d\	mat-	.
.	32gg 32ee\	.	.	.	.
.	32gg 32ee\	.	.	.	.
.	32gg 32ee\	.	.	.	.
.	32gg 32ee\	.	8d\	-ni	.
.	32gg 32ee\	.	.	.	.
.	32gg 32ee\	.	.	.	.
.	32ggJJJ 32ee\	.	.	.	.
8D\)	16ggLL 16ee\	]	8B-\	wy-	.
.	16ggJ 16ee\	.	.	.	.
*	*Xtremolo	*	*	*	*
8r	8gg\J	.	16G\	-drze	.
.	.	.	32r	.	.
.	.	.	32B-\	niech	.
!!LO:PB:g=original
=29	=29	=29	=29	=29	=29
!LO:TX:a:t=Trombone	!	!	!	!	!
2B- 2BB-\	1r	.	4.B-\	tyl-	.
.	.	.	8B-\	-ko	.
4G 4GG/	.	.	4G\	męż-	.
4E-X 4EE-X/	.	.	4E-X\	-ni	.
=30	=30	=30	=30	=30	=30
4.BB- 4.BBB-/	4r	.	4.BB-/	zja-	.
!	!LO:TX:b:t=Tromba\nFag:rj	!	!	!	!
.	8r	.	.	.	.
!LO:TX:a:t=Trombone:rj	!	!	!	!	!
8BB-\	8d 8B-< 8A-X</	.	8BB-/	-wią	.
8EE-X\L	8e-XL 8B-< 8G<'/	.	4BB-/	się	.
8BB-\	8d 8B-< 8A-<'/	.	.	.	.
8EE-\	8e- 8B-< 8G<'/	.	4BB-/	o-	.
8BB-\J	8dJ 8B-< 8A-<'/	.	.	.	.
=31	=31	=31	=31	=31	=31
4EE-X\	4e-X 4B-< 4G</	.	(2.BB-/	-broń-	.
4r	4r	.	.	.	.
!	!	!LO:HP:a=2	!	!	!
(>4BB- 4BBB-/	2r	<[	.	.	.
4AA 4AAA/	.	.	4AA/)	.	.
=32	=32	=32	=32	=32	=32
1GG#X 1GGG#X)	2r	.	4GG#X/	-cy	.
.	.	.	8r	.	f
.	.	.	8F\	w_proch	>
!	!	!LO:DY:rj	!	!	!
.	[2d 2Bn< [2F</	pp	8F\	ze-	.
.	.	.	8F\	-trzem	.
.	.	.	8E\	gło-	.
.	.	.	8D\	-wę	]]
=33	=33	=33	=33	=33	=33
*	*^	*	*	*	*
[1AA [1AAA	(>1d_ 1F<]	2A</	.	4.AA/	téj	.
.	.	.	<	8AA/	o-	.
.	.	2G#X</	.	4AA/	-kru-	.
.	.	.	[[	4AA/	-tnéj	.
=34	=34	=34	=34	=34	=34	=34
4AA] 4AAA\]	2d/]	1Gn< 1E<	>	4AA/	hy-	.
2BB- 2BBB-^/	.	.	.	2BB-^>/	.	.
.	2c#X/)	.	.	.	.	.
4AA 4AAA/	.	.	]	4AA/	.	.
*	*v	*v	*	*	*	*
!!LO:LB:g=original
=35	=35	=35	=35	=35	=35
!!!OMD: Allegro vivace.
8DL 8DD\	[<4d 4A< 4F</	f	4D\	-drze.	.
8AJ 8F 8D\	.	.	.	.	.
*tremolo	*	*	*	*	*
8AL 8F 8D\	(8d/L]	.	4r	.	.
8A 8F 8D\	16c#X/L	.	.	.	.
.	16d/JJ)	.	.	.	.
8A 8F 8D\	(8f/L	.	2r	.	.
8A 8F 8D\	16e/L	.	.	.	.
.	16f/JJ)	.	.	.	.
8A 8F 8D\	(8a/L	.	.	.	.
8AJ 8F 8D\	16g#X/L	.	.	.	.
.	16a/JJ)	.	.	.	.
=36	=36	=36	=36	=36	=36
8AL 8F 8D\	(8dd\L	.	1r	.	.
8A 8F 8D\	16cc#X\L	.	.	.	.
.	16dd\JJ)	.	.	.	.
8A 8F 8D\	(8ff\L	.	.	.	.
8AJ 8F 8D\	16ee\L	.	.	.	.
.	16ff\JJ)	.	.	.	.
8AL 8F 8D\	(8aa\L	.	.	.	.
8A 8F 8D\	16gg#X\L	.	.	.	.
.	16aa\JJ)	.	.	.	.
8A 8F 8D\	(8ddd\L	.	.	.	.
8AJ 8F 8D\	16ccc#X\L	.	.	.	.
.	16ddd\JJ)	.	.	.	.
=37	=37	=37	=37	=37	=37
8cL 8B- 8G 8E\	[4cccn\	.	1r	.	.
8c 8B- 8G 8E\	.	.	.	.	.
8c 8B- 8G 8E\	(8ccc\L]	.	.	.	.
8cJ 8B- 8G 8E\	16bbn\L	.	.	.	.
.	16ccc\JJ)	.	.	.	.
8cL 8B- 8G 8E\	(8bb-X\L	.	.	.	.
8c 8B- 8G 8E\	16aa\L	.	.	.	.
.	16bb-\JJ)	.	.	.	.
8c 8B- 8G 8E\	(8gg\L	.	.	.	.
8cJ 8B- 8G 8E\	16ff#X\L	.	.	.	.
.	16gg\JJ)	.	.	.	.
=38	=38	=38	=38	=38	=38
8B-L 8G 8C\	(8ee\L	.	1r	.	.
8B- 8G 8C\	16dd#X\L	.	.	.	.
.	16ee\JJ)	.	.	.	.
8B- 8G 8C\	(8cc\L	.	.	.	.
8B-J 8G 8C\	16bn\L	.	.	.	.
.	16cc\JJ)	.	.	.	.
8B-L 8G 8C\	(8b-X/L	.	.	.	.
8B- 8G 8C\	16a/L	.	.	.	.
.	16b-/JJ)	.	.	.	.
8B- 8G 8C\	(8g/L	.	.	.	.
8B-J 8G 8C\	16f#X/L	.	.	.	.
.	16g/JJ)	.	.	.	.
*Xtremolo	*	*	*	*	*
!!LO:LB:g=original
=39	=39	=39	=39	=39	=39
*	*	*	*clefG2	*	*
!	!	!	!LO:TX:a:B:t=DONA MARYA.	!	!
8FF\L	16fn'/LL	f	2ff\	Je-	.
!	!LO:TX:b:t=Vno I°	!	!	!	!
.	(16f/	.	.	.	.
8AJ 8F 8C\	16g/	p	.	.	.
.	16a/JJ	.	.	.	.
*tremolo	*	*	*	*	*
8AL 8F 8C\	16b-\LL	.	.	.	.
.	16cc\	.	.	.	.
8A 8F 8C\	16dd\	.	.	.	.
.	16ee\JJ	.	.	.	.
8A 8F 8C\	16ff\LL)	.	4.cc\	-śli	.
!	!LO:TX:b:t=Flau	!	!	!	!
.	16ff'\	.	.	.	.
8A 8F 8C\	(16gg\	.	.	.	.
.	16aa\JJ	.	.	.	.
8A 8F 8C\	16bb-\LL	.	.	.	.
.	16ccc\	.	.	.	.
8AJ 8F 8C\	16ddd\	.	8a/	te	.
.	16eee\JJ	.	.	.	.
*Xtremolo	*	*	*	*	*
=40	=40	=40	=40	=40	=40
!	!LO:TX:t=P:problem=mixed beam	!	!	!	!
4FF/	8fff\L)	.	2g/	pla-	.
.	8cJ 8A/	.	.	.	.
*	*tremolo	*	*	*	*
4r	8cL 8A/	.	.	.	.
.	8c 8A/	.	.	.	.
16r	8c 8A/	.	4f/	-ny	.
!LO:TX:a:t=Cello	!	!	!	!	!
(16FF/LL	.	.	.	.	.
16GG/	8c 8A/	.	.	.	.
16AA/JJ	.	.	.	.	.
16BB-/LL	8c 8A/	.	4f/	od-	.
16C/	.	.	.	.	.
16D/	8cJ 8A/	.	.	.	.
16E/JJ	.	.	.	.	.
=41	=41	=41	=41	=41	=41
4F\)	8r	.	2a/	-kry-	.
.	8cL 8A/	.	.	.	.
4r	8c 8A/	.	.	.	.
.	8cJ 8A/	.	.	.	.
*	*Xtremolo	*	*	*	*
8D\L	2r	.	4g/	-ją	.
8c 8A\	.	.	.	.	.
8c 8A\	.	.	4f#X/	zu-	.
8cJ 8A\	.	.	.	.	.
!!LO:LB:g=original
=42	=42	=42	=42	=42	=42
8GG\L	16r	.	2a/	-chwa-	.
.	16dd\LL	<	.	.	.
8B-J 8G 8D\	16ee\	.	.	.	.
.	16ff#X\JJ	.	.	.	.
*tremolo	*	*	*	*	*
8B-L 8G 8D\	16gg\LL	.	.	.	.
.	16aa\	.	.	.	.
8B- 8G 8D\	16bb-\	.	.	.	.
.	16ccc\JJ	[	.	.	.
8B- 8G 8D\	16ddd\LL	>	4g/	-li	.
.	16ccc\	.	.	.	.
8B- 8G 8D\	16bb-\	.	.	.	.
.	16aa\JJ	.	.	.	.
8B- 8G 8D\	16gg\LL	.	4r	.	.
.	16ffn\	.	.	.	.
8B-J 8G 8D\	16ee\	.	.	.	.
.	16dd\JJ	]	.	.	.
*Xtremolo	*	*	*	*	*
=43	=43	=43	=43	=43	=43
8B-L 8G 8C\	8cc/L	.	2gg\	przed	.
(16D\L	8cc 8b- 8g 8e/	.	.	.	.
16E\JJ	.	.	.	.	.
16F\LL	8cc 8b- 8g 8e/	.	.	.	.
16G\	.	.	.	.	.
16A\	8ccJ 8b- 8g 8e/	.	.	.	.
16Bn\JJ)	.	.	.	.	.
8c\L	16cc 16b- 16g 16e/	.	4.ee\	ich	.
.	(16cc\LL	.	.	.	.
8cJ 8B-X 8G\	16dd\	.	.	.	.
.	16ee\JJ	.	.	.	.
8cL 8B- 8G\	16ff\LL	.	.	.	.
.	16gg\	.	.	.	.
8cJ 8B- 8G\	16aa\	.	8cc\	wście-	.
.	16bbn\JJ)	.	.	.	.
=44	=44	=44	=44	=44	=44
!	!LO:TX:t=P:problem=mixed beam	!	!	!	!
4C\	8ccc\L	.	2b-\	-kło-	.
.	8eJ 8c 8B-</	.	.	.	.
*	*tremolo	*	*	*	*
4r	8eL 8c 8B-</	.	.	.	.
.	8e 8c 8B-</	.	.	.	.
16r	8e 8c 8B-</	.	2g/	-ścią	.
16CC/LL	.	.	.	.	.
16DD/	8e 8c 8B-</	.	.	.	.
16EE/JJ	.	.	.	.	.
16FF/LL	8e 8c 8B-</	.	.	.	.
16GG/	.	.	.	.	.
16AA/	8eJ 8c 8B-</	.	.	.	.
16BBn/JJ	.	.	.	.	.
=45	=45	=45	=45	=45	=45
4C\	8r	.	4.dd\	nic	.
.	8eL 8c 8B-</	.	.	.	.
4r	8e 8c 8B-</	.	.	.	.
.	8eJ 8c 8B-</	.	8dd\	się	.
2r	8eL 8c 8B-</	.	4cc\	nie	.
.	8e 8c 8B-</	.	.	.	.
.	8e 8c 8B-</	.	4b-\	o-	.
.	8eJ 8c 8B-</	.	.	.	.
*	*Xtremolo	*	*	*	*
!!LO:LB:g=original
=46	=46	=46	=46	=46	=46
8FF/L	8r	.	2g#X/	-ca-	.
(<16GG/L	8fL 8c 8A/	.	.	.	.
16AA/JJ	.	.	.	.	.
16BB-/LL	8f 8c 8A/	.	.	.	.
16C/	.	.	.	.	.
16D/	8fJ 8c 8A/	.	.	.	.
16E/JJ)	.	.	.	.	.
8F\L	16f 16c 16A/	.	4a/	-li	.
.	(16f/LL	.	.	.	.
8c 8A\	16g/	.	.	.	.
.	16a/JJ	.	.	.	.
8c 8A\	16b-\LL	.	4r	.	.
.	16cc\	.	.	.	.
8cJ 8A\	16dd\	.	.	.	.
.	16ee\JJ	.	.	.	.
=47	=47	=47	=47	=47	=47
!	!LO:TX:t=P:problem=mixed beam	!	!	!	!
4F\	8ff\L)	.	8.ff\	ach!	.
.	8dJ 8B-</	>	.	.	.
.	.	.	16f/	ta	.
4r	8dL 8B-</	.	4f/	myśl	.
.	8dJ 8B-</	.	.	.	.
*	*tremolo	*	*	*	*
2r	8d-XL 8B-</	]	4f/	oj-	.
.	8d- 8B-</	.	.	.	.
.	8d- 8B-</	.	8g/	-cze,	.
.	8d-J 8B-</	.	8g/	iż	.
=48	=48	=48	=48	=48	=48
8FF\L	8cL 8A</	.	4a/	dla	.
(16GG\L	8c 8A</	.	.	.	.
16AA\JJ	.	.	.	.	.
16BB-\LL	8c 8A</	.	8a/	mnie	.
16C\	.	.	.	.	.
16D\	8cJ 8A</	.	8g/	je-	.
16E\JJ)	.	.	.	.	.
*	*Xtremolo	*	*	*	*
8A 8F\L	(16cLL 16A</	.	4g/	-dy-	.
.	16f/	.	.	.	.
8c 8A\	16g/	.	.	.	.
.	16a/JJ	.	.	.	.
8c 8A\	16b-\LL	.	8f/	-nie	.
.	16cc\	.	.	.	.
8cJ 8A\	16dd\	.	8r	.	.
.	16ee\JJ)	.	.	.	.
!!LO:LB:g=original
=49	=49	=49	=49	=49	=49
!	!LO:TX:t=P:problem=mixed beam	!	!	!	!
4F 4FF/	8ff\L	.	4ff\	Mo-	.
.	8d 8B-<J/	.	.	.	.
4r	8d 8B-<L/	.	8f/	-że	.
.	8dJ 8B-</	.	8f/	z_twéj	.
*	*tremolo	*	*	*	*
2r	8d-XL 8B-</	.	4f/	pier-	.
.	8d- 8B-</	.	.	.	.
.	8d- 8B-</	.	4g/	-si	.
.	8d-J 8B-</	.	.	.	.
=50	=50	=50	=50	=50	=50
8FF\L	8cL 8A</	.	8a/	stru-	.
(16GG\L	8c 8A</	.	8a/	-mień	.
16AA\JJ	.	.	.	.	.
16BB-\LL	8c 8A</	.	8a/	krwi	.
16C\	.	.	.	.	.
16D\	8cJ 8A</	.	8g/	po-	.
16E\JJ)	.	.	.	.	.
*	*Xtremolo	*	*	*	*
!	!LO:TX:t=P:problem=mixed beam	!	!	!	!
8A 8F\L	16cLL 16A</	.	4g/	-pły-	.
.	(16ccc\	.	.	.	.
8c 8A\	16bbn\	.	.	.	.
.	16ccc\JJ	.	.	.	.
8c 8A\	16ddd\LL	.	8f/	-nie	.
.	16ccc\	.	.	.	.
8cJ 8A\	16aa\	.	8r	.	.
.	16ff\JJ)	.	.	.	.
=51	=51	=51	=51	=51	=51
*^	*	*	*	*	*
8r	1E	4cc\	.	2cc\	wskroś	.
*tremolo	*	*	*	*	*	*
8cL 8B- 8G/	.	.	.	.	.	.
8c 8B- 8G/	.	4r	.	.	.	.
8cJ 8B- 8G/	.	.	.	.	.	.
8cL 8B- 8G/	.	4gg 4g\	.	4g/	mnie	.
8c 8B- 8G/	.	.	.	.	.	.
8c 8B- 8G/	.	4gg#X 4g#X\	.	4g#X/	przéj-	.
8cJ 8B- 8G/	.	.	.	.	.	.
*Xtremolo	*	*	*	*	*	*
!!LO:LB:g=original
=52	=52	=52	=52	=52	=52	=52
4F/	8F\L	4aa 4a\	<	(4a/	-mu-	.
.	8cJ 8A\	.	.	.	.	.
4F/	8F\L	4bbn 4bn\	.	4bn\)	.	.
.	8dJ 8G\	.	.	.	.	.
4E/	8E\L	4ccc 4cc\	.	4cc\	-je	.
.	8cJ 8G\	.	.	.	.	.
4F/	8F\L	4ddd 4dd\	[[	4dd\	wy-	.
.	8dJ 8A\	.	.	.	.	.
=53	=53	=53	=53	=53	=53	=53
!	!LO:N:vis=2	!	!	!	!	!
2G/	8G\L	4eee 4ee\	f	4ee\	-rzu-	.
.	8e 8c\	.	.	.	.	.
.	8e 8c\	2ggg 2gg\	>	2gg^\	.	.
.	8eJ 8c\	.	.	.	.	.
!	!LO:N:vis=2	!	!	!	!	!
2GG/	8GG\L	.	.	.	.	.
.	8Bn 8G 8F\	.	]	.	.	.
.	8B 8G 8F\	8fffL 8ff\	.	8ff\	-tem	.
.	8BJ 8G 8F\	8dddJ 8dd\	.	8dd\	i	.
*v	*v	*	*	*	*	*
=54	=54	=54	=54	=54	=54
.	.	.	4qqdd/	.	.
(16C\LL	4ccc 4cc\	<	2cc\	trwogą	.
16D\	.	.	.	.	.
16E\	.	.	.	.	.
16F\JJ	.	.	.	.	.
16F#X\LL	4r	.	.	.	.
16G\	.	.	.	.	.
16A\	.	.	.	.	.
16G\JJ	.	.	.	.	.
*	*	*	*clefF4	*	*
!	!	!	!LO:TX:a:B:t=DON ALONZO.	!	!
16Fn\LL	2r	[	4r	.	.
16E\	.	>	.	.	.
16D\	.	.	.	.	.
16C\JJ	.	.	.	.	.
16BBn/LL	.	.	4C/	O!	.
16C/	.	.	.	.	.
16BB-X/	.	.	.	.	.
16GG/JJ)	.	]	.	.	.
!!LO:LB:g=original
=55	=55	=55	=55	=55	=55
8FF\L	16r	p	(2c\	in-	.
.	(16f/LL	.	.	.	.
8cJ 8A\	16g/	.	.	.	.
.	16a/JJ	.	.	.	.
*tremolo	*	*	*	*	*
8cL 8A\	16b-\LL	.	.	.	.
.	16cc\	.	.	.	.
8c 8A\	16dd\	.	.	.	.
.	16ee\JJ)	.	.	.	.
8c 8A\	(16ff\LL	.	4A\)	.	.
.	16ff\	.	.	.	.
8c 8A\	16gg\	.	.	.	.
.	16aa\JJ	.	.	.	.
8c 8A\	16bb-\LL	.	4F\	-ne	.
.	16ccc\	.	.	.	.
8cJ 8A\	16ddd\	.	.	.	.
.	16eee\JJ)	.	.	.	.
*Xtremolo	*	*	*	*	*
=56	=56	=56	=56	=56	=56
!	!LO:TX:t=P:problem=mixed beam	!	!	!	!
4F\	8fff\L	.	(4.C/	je-	.
.	8cJ 8A</	.	.	.	.
4r	8cL 8A</	.	.	.	.
.	8cJ 8A</	.	8D\)	.	.
*	*tremolo	*	*	*	*
16r	8cL 8A</	.	4C/	-szcze	.
(16FF/LL	.	.	.	.	.
16GG/	8c 8A</	.	.	.	.
16AA/JJ	.	.	.	.	.
16BB-/LL	8c 8A</	.	4C/	u-	.
16C/	.	.	.	.	.
16D/	8cJ 8A</	.	.	.	.
16E/JJ)	.	.	.	.	.
=57	=57	=57	=57	=57	=57
4F\	8r	.	2A\	-kry-	.
.	8cL 8A</	.	.	.	.
4r	8c 8A</	.	.	.	.
.	8cJ 8A</	.	.	.	.
*	*Xtremolo	*	*	*	*
8D\L	2r	.	4G\	-te	.
8c 8A\	.	.	.	.	.
8c 8A\	.	.	4F#X\	po-	.
8cJ 8A\	.	.	.	.	.
=58	=58	=58	=58	=58	=58
8GG\L	16r	.	2A\	-wo-	.
.	(16dd\LL	<	.	.	.
8B-J 8G 8D\	16ee\	.	.	.	.
.	16ff#X\JJ	.	.	.	.
*tremolo	*	*	*	*	*
8B-L 8G 8D\	16gg\LL	.	.	.	.
.	16aa\	.	.	.	.
8B- 8G 8D\	16bb-\	.	.	.	.
.	16ccc\JJ	.	.	.	.
8B- 8G 8D\	16ddd\LL	[	4G\	-dy	.
.	16ccc\	>	.	.	.
8B- 8G 8D\	16bb-\	.	.	.	.
.	16aa\JJ	.	.	.	.
8B- 8G 8D\	16gg\LL	.	4r	.	.
.	16ffn\	.	.	.	.
8B-J 8G 8D\	16ee\	.	.	.	.
.	16dd\JJ)	]	.	.	.
*Xtremolo	*	*	*	*	*
!!LO:PB:g=original
=59	=59	=59	=59	=59	=59
8C\L	8cc\	.	2B-\	Zem-	.
16D\L	8ccL 8b- 8g 8e/	.	.	.	.
16E\JJ	.	.	.	.	.
16F\LL	8cc 8b- 8g 8e/	.	.	.	.
16G\	.	.	.	.	.
16A\	8ccJ 8b- 8g 8e/	.	.	.	.
16Bn\JJ	.	.	.	.	.
8c\L	16cc 16b- 16g 16e/	.	4.A\	-stę	.
.	(16cc\LL	.	.	.	.
8c 8B-X 8G\	16dd\	.	.	.	.
.	16ee\JJ	.	.	.	.
8c 8B- 8G\	16ff\LL	.	.	.	.
.	16gg\	.	.	.	.
8cJ 8B- 8G\	16aa\	.	8A\	w_mej	.
.	16bbn\JJ)	.	.	.	.
=60	=60	=60	=60	=60	=60
!	!LO:TX:t=P:problem=mixed beam	!	!	!	!
4C/	8ccc\L	.	4A\	du-	.
.	8eJ 8c 8B-X</	.	.	.	.
*	*tremolo	*	*	*	*
!	!LO:N:TREM:vis=2	!	!	!	!
4r	8eL 8c 8B-</	.	4G\	-szy	.
.	8e 8c 8B-</	.	.	.	.
16r	8e 8c 8B-</	.	4G\	zem-	.
(16CC/LL	.	.	.	.	.
16DD/	8e 8c 8B-</	.	.	.	.
16EE/JJ	.	.	.	.	.
16FF/LL	8e 8c 8B-</	.	8F\	-stę	.
16GG/	.	.	.	.	.
16AA/	8eJ 8c 8B-</	.	8F\	w_méj	.
16BBn/JJ)	.	.	.	.	.
*	*Xtremolo	*	*	*	*
=61	=61	=61	=61	=61	=61
4C/	8r	.	(8F\L	du-	.
.	8eL 8c 8B-</	.	8E\J)	.	.
4r	8e 8c 8B-</	.	8E\	-szy	.
.	8eJ 8c 8B-</	.	8D\	za-	.
*	*tremolo	*	*	*	*
4CC\	8eL 8c 8B-</	.	(8D/L	-tli-	.
.	8e 8c 8B-</	.	8C/J)	.	.
4r	8e 8c 8B-</	.	8C/	-ły	.
.	8eJ 8c 8B-</	.	8BB-/	zło-	.
*	*Xtremolo	*	*	*	*
!!LO:LB:g=original
=62	=62	=62	=62	=62	=62
(8FF/L	8r	.	2BB-/	-wro-	.
16GG/L	8fL 8c 8A/	.	.	.	.
16AA/JJ	.	.	.	.	.
16BB-/LL	8f 8c 8A/	.	.	.	.
16C/	.	.	.	.	.
16D/	8fJ 8c 8A/	.	.	.	.
16E/JJ)	.	.	.	.	.
8F\L	16f 16c 16A/	.	4AA/	-gie	.
.	(16f/LL	.	.	.	.
8c 8A\	16g/	.	.	.	.
.	16a/JJ	.	.	.	.
8c 8A\	16b-\LL	.	8r	.	.
.	16cc\	.	.	.	.
8cJ 8A\	16dd\	.	8F\	po-	.
.	16ee\JJ)	.	.	.	.
=63	=63	=63	=63	=63	=63
!	!LO:TX:t=P:problem=mixed beam	!	!	!	!
4F\	8ff\L	.	2d\	-słu-	.
.	8dJ 8B-</	.	.	.	.
4r	8dL 8B-</	.	.	.	.
.	8dJ 8B-</	.	.	.	.
*	*tremolo	*	*	*	*
(2F^<\	8d-XL 8B-</	.	2d-X\	-chaj	.
.	8d- 8B-</	.	.	.	.
.	8d- 8B-</	.	.	.	.
.	8d-J 8B-</	.	.	.	.
*	*Xtremolo	*	*	*	*
=64	=64	=64	=64	=64	=64
8FF/L)	8r	.	2c\	cór-	.
16GG/L	8cL 8A/	.	.	.	.
16AA/JJ	.	.	.	.	.
16BB-/LL	8c 8A/	.	.	.	.
16C/	.	.	.	.	.
16D/	8cJ 8A/	.	.	.	.
16E/JJ	.	.	.	.	.
8F\L	16c 16A/	.	4F\	-ko	.
.	(16f/LL	.	.	.	.
8c 8A\	16g/	.	.	.	.
.	16a/JJ	.	.	.	.
8c 8A\	16b-\LL	.	4F\	téj	.
.	16cc\	.	.	.	.
8cJ 8A\	16dd\	.	.	.	.
.	16ee\JJ)	.	.	.	.
=65	=65	=65	=65	=65	=65
!	!LO:TX:t=P:problem=mixed beam	!	!	!	!
4F\	8ff\L	.	2d\	smu-	.
.	8dJ 8B-</	.	.	.	.
4r	8dL 8B-</	.	.	.	.
.	8dJ 8B-</	.	.	.	.
*	*tremolo	*	*	*	*
(2F^<\	8d-XL 8B-</	.	4d-X\	-tnéj	.
.	8d- 8B-</	.	.	.	.
.	8d- 8B-</	.	4d-\	przy-	.
.	8d-J 8B-</	.	.	.	.
*	*Xtremolo	*	*	*	*
!!LO:LB:g=original
=66	=66	=66	=66	=66	=66
8FF/L)	8c 8A/	.	2c\	-go-	.
(16GG/L	8ffL 8cc 8a\	.	.	.	.
16AA/JJ	.	.	.	.	.
16BB-/LL	8ff 8cc 8a\	.	.	.	.
16C/	.	.	.	.	.
16D/	8ffJ 8cc 8a\	.	.	.	.
16E/JJ)	.	.	.	.	.
8F\L	16ffLL 16cc 16a\	.	4A\	-dy	.
.	16aa\	.	.	.	.
8c 8A\	16gg\	.	.	.	.
.	16ff\JJ	.	.	.	.
8c 8A\	16ee\LL	.	8r	.	.
.	16dd\	.	.	.	.
8cJ 8A\	16cc\	.	8A\	po-	.
.	16b-\JJ	.	.	.	.
=67	=67	=67	=67	=67	=67
*^	*	*	*	*	*
8r	1C#X	16a'/LL	.	2A\	-słu-	.
.	.	(16a/	.	.	.	.
8AL 8E/	.	16g#X/	.	.	.	.
.	.	16a/JJ)	.	.	.	.
8A 8E/	.	16ee'\LL	.	.	.	.
.	.	(16ee\	.	.	.	.
8AJ 8E/	.	16dd#X\	.	.	.	.
.	.	16ee\JJ)	.	.	.	.
*tremolo	*	*	*	*	*	*
8AL 8E/	.	4aa\	.	2E\	-chaj	.
8A 8E/	.	.	.	.	.	.
8A 8E/	.	4r	.	.	.	.
8AJ 8E/	.	.	.	.	.	.
*Xtremolo	*	*	*	*	*	*
=68	=68	=68	=68	=68	=68	=68
8r	1D	16dd'\LL	.	2F\	cór-	.
.	.	(16dd\	.	.	.	.
8AL 8F/	.	16cc#X\	.	.	.	.
.	.	16dd\JJ)	.	.	.	.
8A 8F/	.	16ff'\LL	.	.	.	.
.	.	(16ff\	.	.	.	.
8AJ 8F/	.	16ee\	.	.	.	.
.	.	16ff\JJ)	.	.	.	.
*tremolo	*	*	*	*	*	*
8AL 8F/	.	4aa\	.	4D\	-ko	.
8A 8F/	.	.	.	.	.	.
8A 8F/	.	4r	.	4D\	téj	.
8AJ 8F/	.	.	.	.	.	.
*Xtremolo	*	*	*	*	*	*
*v	*v	*	*	*	*	*
!!LO:LB:g=original
=69	=69	=69	=69	=69	=69
1BB- 1BBB-	2r	.	2F\	smu-	.
!	!LO:S:s=1:note:problem:note-level slur	!	!	!	!
.	(<2d (2G#X< [2E</	.	4E\	-tnéj	.
.	.	.	4D\	przy-	.
=70	=70	=70	=70	=70	=70
2.AA 2.AAA;<\	2.c#X 2.A< 2.E<;/]))	.	2A;\	-go-	.
.	.	.	8qB-/	.	.
.	.	.	4A;\	-dy.	.
4r;	4r;	.	4r;	.	.
=71	=71	=71	=71	=71	=71
*	*tremolo	*	*	*	*
!	!LO:TX:a:i:t=trem&colon;	!	!LO:TX:a:B:t=Recit.	!	!
1A 1F# [1D [1DD	32d/LLL	fp	4d\	Kie-	.
.	32d/	.	.	.	.
.	32d/	.	.	.	.
.	32d/	.	.	.	.
.	32d/	.	.	.	.
.	32d/	.	.	.	.
.	32d/	.	.	.	.
.	32d/	.	.	.	.
.	32d/	.	8A\	-dy	.
.	32d/	.	.	.	.
.	32d/	.	.	.	.
.	32d/	.	.	.	.
.	32d/	.	8A\	mój	.
.	32d/	.	.	.	.
.	32d/	.	.	.	.
.	32d/	.	.	.	.
.	32d/	.	4G\	oj-	.
.	32d/	.	.	.	.
.	32d/	.	.	.	.
.	32d/	.	.	.	.
.	32d/	.	.	.	.
.	32d/	.	.	.	.
.	32d/	.	.	.	.
.	32d/	.	.	.	.
.	32d/	.	4F#X\	-ciec	.
.	32d/	.	.	.	.
.	32d/	.	.	.	.
.	32d/	.	.	.	.
.	32d/	.	.	.	.
.	32d/	.	.	.	.
.	32d/	.	.	.	.
.	32d/JJJ	.	.	.	.
=72	=72	=72	=72	=72	=72
!	!LO:TX:a:i:t=trem&colon;	!	!	!	!
1A 1F# 1D] 1DD]	32d/LLL	.	8F#X\	pły-	.
.	32d/	.	.	.	.
.	32d/	.	.	.	.
.	32d/	.	.	.	.
.	32d/	.	8F#\	-nął	.
.	32d/	.	.	.	.
.	32d/	.	.	.	.
.	32d/	.	.	.	.
.	32d/	.	8G\	w_o-	.
.	32d/	.	.	.	.
.	32d/	.	.	.	.
.	32d/	.	.	.	.
.	32d/	.	8A\	-we	.
.	32d/	.	.	.	.
.	32d/	.	.	.	.
.	32d/	.	.	.	.
.	32d/	.	4A\	stro-	.
.	32d/	.	.	.	.
.	32d/	.	.	.	.
.	32d/	.	.	.	.
.	32d/	.	.	.	.
.	32d/	.	.	.	.
.	32d/	.	.	.	.
.	32d/	.	.	.	.
.	32d/	.	8D\	-ny	.
.	32d/	.	.	.	.
.	32d/	.	.	.	.
.	32d/	.	.	.	.
.	32d/	.	16r	.	.
.	32d/	.	.	.	.
.	32d/	.	16A\	go-	.
.	32d/JJJ	.	.	.	.
!!LO:PB:g=original
=73	=73	=73	=73	=73	=73
1A 1G [1C#X [1CC#X	32e/LLL	.	4.A\	-dno-	.
.	32e/	.	.	.	.
.	32e/	.	.	.	.
.	32e/	.	.	.	.
.	32e/	.	.	.	.
.	32e/	.	.	.	.
.	32e/	.	.	.	.
.	32e/	.	.	.	.
.	32e/	.	.	.	.
.	32e/	.	.	.	.
.	32e/	.	.	.	.
.	32e/	.	.	.	.
.	32e/	.	8A\	-ścią	.
.	32e/	.	.	.	.
.	32e/	.	.	.	.
.	32e/	.	.	.	.
.	32e/	.	4Bn\	rzą-	.
.	32e/	.	.	.	.
.	32e/	.	.	.	.
.	32e/	.	.	.	.
.	32e/	.	.	.	.
.	32e/	.	.	.	.
.	32e/	.	.	.	.
.	32e/	.	.	.	.
.	32e/	.	4A\	-dcy	.
.	32e/	.	.	.	.
.	32e/	.	.	.	.
.	32e/	.	.	.	.
.	32e/	.	.	.	.
.	32e/	.	.	.	.
.	32e/	.	.	.	.
.	32e/JJJ	.	.	.	.
=74	=74	=74	=74	=74	=74
1A 1G 1C#] 1CC#]	32e/LLL	.	4A\	wysp	.
.	32e/	.	.	.	.
.	32e/	.	.	.	.
.	32e/	.	.	.	.
.	32e/	.	.	.	.
.	32e/	.	.	.	.
.	32e/	.	.	.	.
.	32e/	.	.	.	.
.	32e/	.	4E\	tych	.
.	32e/	.	.	.	.
.	32e/	.	.	.	.
.	32e/	.	.	.	.
.	32e/	.	.	.	.
.	32e/	.	.	.	.
.	32e/	.	.	.	.
.	32e/	.	.	.	.
.	32e/	.	4D#X\	za-	.
.	32e/	.	.	.	.
.	32e/	.	.	.	.
.	32e/	.	.	.	.
.	32e/	.	.	.	.
.	32e/	.	.	.	.
.	32e/	.	.	.	.
.	32e/	.	.	.	.
.	32e/	.	4E\	-szczy-	.
.	32e/	.	.	.	.
.	32e/	.	.	.	.
.	32e/	.	.	.	.
.	32e/	.	.	.	.
.	32e/	.	.	.	.
.	32e/	.	.	.	.
.	32e/JJJ	.	.	.	.
=75	=75	=75	=75	=75	=75
.	.	.	4qqG/	.	.
1A 1F# 1D 1DD	32d/LLL	.	2F#X\	-cony	.
.	32d/	.	.	.	.
.	32d/	.	.	.	.
.	32d/	.	.	.	.
.	32d/	.	.	.	.
.	32d/	.	.	.	.
.	32d/	.	.	.	.
.	32d/	.	.	.	.
.	32d/	.	.	.	.
.	32d/	.	.	.	.
.	32d/	.	.	.	.
.	32d/	.	.	.	.
.	32d/	.	.	.	.
.	32d/	.	.	.	.
.	32d/	.	.	.	.
.	32d/	.	.	.	.
.	32d/	.	4r	.	.
.	32d/	.	.	.	.
.	32d/	.	.	.	.
.	32d/	.	.	.	.
.	32d/	.	.	.	.
.	32d/	.	.	.	.
.	32d/	.	.	.	.
.	32d/	.	.	.	.
.	32d/	.	8r	.	.
.	32d/	.	.	.	.
.	32d/	.	.	.	.
.	32d/	.	.	.	.
.	32d/	.	8A\	i	.
.	32d/	.	.	.	.
.	32d/	.	.	.	.
.	32d/JJJ	.	.	.	.
=76	=76	=76	=76	=76	=76
!LO:SIC:v:o=1B- 1A [1D#X [1DD#X	!	!	!	!	!
1B 1A [1D#X [1DD#X	32f#X/LLL	.	4.A\	two-	.
.	32f#/	.	.	.	.
.	32f#/	.	.	.	.
.	32f#/	.	.	.	.
.	32f#/	.	.	.	.
.	32f#/	.	.	.	.
.	32f#/	.	.	.	.
.	32f#/	.	.	.	.
.	32f#/	.	.	.	.
.	32f#/	.	.	.	.
.	32f#/	.	.	.	.
.	32f#/	.	.	.	.
.	32f#/	.	8F#X\	-ja	.
.	32f#/	.	.	.	.
.	32f#/	.	.	.	.
.	32f#/	.	.	.	.
.	32f#/	.	4E\	ma-	.
.	32f#/	.	.	.	.
.	32f#/	.	.	.	.
.	32f#/	.	.	.	.
.	32f#/	.	.	.	.
.	32f#/	.	.	.	.
.	32f#/	.	.	.	.
.	32f#/	.	.	.	.
.	32f#/	.	8D#X\	-tka	.
.	32f#/	.	.	.	.
.	32f#/	.	.	.	.
.	32f#/	.	.	.	.
.	32f#/	.	8D#\	mał-	.
.	32f#/	.	.	.	.
.	32f#/	.	.	.	.
.	32f#/JJJ	.	.	.	.
!!LO:LB:g=original
=77	=77	=77	=77	=77	=77
1D#] 1DD#]	32f#XLLL 32Bn< 32A</	.	8D#X\	-żon-	.
.	32f# 32B< 32A</	.	.	.	.
.	32f# 32B< 32A</	.	.	.	.
.	32f# 32B< 32A</	.	.	.	.
.	32f# 32B< 32A</	.	16D#\	-ka	.
.	32f# 32B< 32A</	.	.	.	.
.	32f# 32B< 32A</	.	16E\	ma	.
.	32f# 32B< 32A</	.	.	.	.
.	32f# 32B< 32A</	.	8G\	lu-	.
.	32f# 32B< 32A</	.	.	.	.
.	32f# 32B< 32A</	.	.	.	.
.	32f# 32B< 32A</	.	.	.	.
.	32f# 32B< 32A</	.	8F#X\	-ba	.
.	32f# 32B< 32A</	.	.	.	.
.	32f# 32B< 32A</	.	.	.	.
.	32f#JJJ 32B< 32A</	.	.	.	.
.	32f#LLL 32B< 32A</	.	4F#\	dni	.
.	32f# 32B< 32A</	.	.	.	.
.	32f# 32B< 32A</	.	.	.	.
.	32f# 32B< 32A</	.	.	.	.
.	32f# 32B< 32A</	.	.	.	.
.	32f# 32B< 32A</	.	.	.	.
.	32f# 32B< 32A</	.	.	.	.
.	32f# 32B< 32A</	.	.	.	.
.	32f# 32B< 32A</	.	8.F#\	mych	.
.	32f# 32B< 32A</	.	.	.	.
.	32f# 32B< 32A</	.	.	.	.
.	32f# 32B< 32A</	.	.	.	.
.	32f# 32B< 32A</	.	.	.	.
.	32f# 32B< 32A</	.	.	.	.
.	32f# 32B< 32A</	.	16G\	o-	.
.	32f#JJJ 32B< 32A</	.	.	.	.
=78	=78	=78	=78	=78	=78
*tremolo	*	*	*	*	*
32D#XLLL 32DD#X\	32f#XLLL 32Bn< 32A</	.	4Bn\	-zdo-	.
32D# 32DD#\	32f# 32B< 32A</	.	.	.	.
32D# 32DD#\	32f# 32B< 32A</	.	.	.	.
32D# 32DD#\	32f# 32B< 32A</	.	.	.	.
32D# 32DD#\	32f# 32B< 32A</	.	.	.	.
32D# 32DD#\	32f# 32B< 32A</	.	.	.	.
32D# 32DD#\	32f# 32B< 32A</	.	.	.	.
32D# 32DD#\	32f# 32B< 32A</	.	.	.	.
32D# 32DD#\	32f# 32B< 32A</	.	8A\	-ba	.
32D# 32DD#\	32f# 32B< 32A</	.	.	.	.
32D# 32DD#\	32f# 32B< 32A</	.	.	.	.
32D# 32DD#\	32f# 32B< 32A</	.	.	.	.
32D# 32DD#\	32f# 32B< 32A</	.	16r	.	.
32D# 32DD#\	32f# 32B< 32A</	.	.	.	.
32D# 32DD#\	32f# 32B< 32A</	.	16A\	na-	.
32D#JJJ 32DD#\	32f#JJJ 32B< 32A</	.	.	.	.
32D#LLL 32DD#\	32f#LLL 32B< 32A</	.	4c\	-dzie-	.
32D# 32DD#\	32f# 32B< 32A</	.	.	.	.
32D# 32DD#\	32f# 32B< 32A</	.	.	.	.
32D# 32DD#\	32f# 32B< 32A</	.	.	.	.
32D# 32DD#\	32f# 32B< 32A</	.	.	.	.
32D# 32DD#\	32f# 32B< 32A</	.	.	.	.
32D# 32DD#\	32f# 32B< 32A</	.	.	.	.
32D# 32DD#\	32f# 32B< 32A</	.	.	.	.
32D# 32DD#\	32f# 32B< 32A</	.	8.Bn\	-ja	.
32D# 32DD#\	32f# 32B< 32A</	.	.	.	.
32D# 32DD#\	32f# 32B< 32A</	.	.	.	.
32D# 32DD#\	32f# 32B< 32A</	.	.	.	.
32D# 32DD#\	32f# 32B< 32A</	.	.	.	.
32D# 32DD#\	32f# 32B< 32A</	.	.	.	.
32D# 32DD#\	32f# 32B< 32A</	.	16c\	i	.
32D#JJJ 32DD#\	32f#JJJ 32B< 32A</	.	.	.	.
=79	=79	=79	=79	=79	=79
32D#XLLL 32DD#X\	32f#XLLL 32Bn< 32A</	.	4Bn\	chlu-	.
32D# 32DD#\	32f# 32B< 32A</	.	.	.	.
32D# 32DD#\	32f# 32B< 32A</	.	.	.	.
32D# 32DD#\	32f# 32B< 32A</	.	.	.	.
32D# 32DD#\	32f# 32B< 32A</	.	.	.	.
32D# 32DD#\	32f# 32B< 32A</	.	.	.	.
32D# 32DD#\	32f# 32B< 32A</	.	.	.	.
32D# 32DD#\	32f# 32B< 32A</	.	.	.	.
32D# 32DD#\	32f# 32B< 32A</	.	4A\	-ba	.
32D# 32DD#\	32f# 32B< 32A</	.	.	.	.
32D# 32DD#\	32f# 32B< 32A</	.	.	.	.
32D# 32DD#\	32f# 32B< 32A</	.	.	.	.
32D# 32DD#\	32f# 32B< 32A</	.	.	.	.
32D# 32DD#\	32f# 32B< 32A</	.	.	.	.
32D# 32DD#\	32f# 32B< 32A</	.	.	.	.
32D#JJJ 32DD#\	32f#JJJ 32B< 32A</	.	.	.	.
32D#LLL 32DD#\	32f#LLL 32B< 32A</	.	4B\	wraz	.
32D# 32DD#\	32f# 32B< 32A</	.	.	.	.
32D# 32DD#\	32f# 32B< 32A</	.	.	.	.
32D# 32DD#\	32f# 32B< 32A</	.	.	.	.
32D# 32DD#\	32f# 32B< 32A</	.	.	.	.
32D# 32DD#\	32f# 32B< 32A</	.	.	.	.
32D# 32DD#\	32f# 32B< 32A</	.	.	.	.
32D# 32DD#\	32f# 32B< 32A</	.	.	.	.
32D# 32DD#\	32f# 32B< 32A</	.	8.B\	z_nim	.
32D# 32DD#\	32f# 32B< 32A</	.	.	.	.
32D# 32DD#\	32f# 32B< 32A</	.	.	.	.
32D# 32DD#\	32f# 32B< 32A</	.	.	.	.
32D# 32DD#\	32f# 32B< 32A</	.	.	.	.
32D# 32DD#\	32f# 32B< 32A</	.	.	.	.
32D# 32DD#\	32f# 32B< 32A</	.	16F#X\	pły-	.
32D#JJJ 32DD#\	32f#JJJ 32B< 32A</	.	.	.	.
*Xtremolo	*Xtremolo	*	*	*	*
!!LO:LB:g=original
=80	=80	=80	=80	=80	=80
.	.	.	(4qqA/	.	.
4E 4EE\	4e 4Bn< 4G</	.	2G\)	-nęła	.
4r	4r	.	.	.	.
2r	2r	.	4r	.	.
.	.	.	4G\	o	.
=81	=81	=81	=81	=81	=81
*tremolo	*tremolo	*	*	*	*
!	!	!LO:DY:rj	!	!	!
32CLLL 32CC\	32eLLL 32c 32G</	fp	2c\	z_ja-	.
32C 32CC\	32e 32c 32G</	.	.	.	.
32C 32CC\	32e 32c 32G</	.	.	.	.
32C 32CC\	32e 32c 32G</	.	.	.	.
32C 32CC\	32e 32c 32G</	.	.	.	.
32C 32CC\	32e 32c 32G</	.	.	.	.
32C 32CC\	32e 32c 32G</	.	.	.	.
32C 32CC\	32e 32c 32G</	.	.	.	.
32C 32CC\	32e 32c 32G</	.	.	.	.
32C 32CC\	32e 32c 32G</	.	.	.	.
32C 32CC\	32e 32c 32G</	.	.	.	.
32C 32CC\	32e 32c 32G</	.	.	.	.
32C 32CC\	32e 32c 32G</	.	.	.	.
32C 32CC\	32e 32c 32G</	.	.	.	.
32C 32CC\	32e 32c 32G</	.	.	.	.
32CJJJ 32CC\	32eJJJ 32c 32G</	.	.	.	.
32CLLL 32CC\	32eLLL 32c 32G</	.	4.G\	-kim	.
32C 32CC\	32e 32c 32G</	.	.	.	.
32C 32CC\	32e 32c 32G</	.	.	.	.
32C 32CC\	32e 32c 32G</	.	.	.	.
32C 32CC\	32e 32c 32G</	.	.	.	.
32C 32CC\	32e 32c 32G</	.	.	.	.
32C 32CC\	32e 32c 32G</	.	.	.	.
32C 32CC\	32e 32c 32G</	.	.	.	.
32C 32CC\	32e 32c 32G</	.	.	.	.
32C 32CC\	32e 32c 32G</	.	.	.	.
32C 32CC\	32e 32c 32G</	.	.	.	.
32C 32CC\	32e 32c 32G</	.	.	.	.
32C 32CC\	32e 32c 32G</	.	8E\	za-	.
32C 32CC\	32e 32c 32G</	.	.	.	.
32C 32CC\	32e 32c 32G</	.	.	.	.
32CJJJ 32CC\	32eJJJ 32c 32G</	.	.	.	.
=82	=82	=82	=82	=82	=82
.	.	.	(4qqD/	.	.
32CLLL 32CC\	32cLLL 32G< 32E<	.	2C/)	-pałem	.
32C 32CC\	32c 32G< 32E<	.	.	.	.
32C 32CC\	32c 32G< 32E<	.	.	.	.
32C 32CC\	32c 32G< 32E<	.	.	.	.
32C 32CC\	32c 32G< 32E<	.	.	.	.
32C 32CC\	32c 32G< 32E<	.	.	.	.
32C 32CC\	32c 32G< 32E<	.	.	.	.
32C 32CC\	32c 32G< 32E<	.	.	.	.
32C 32CC\	32c 32G< 32E<	.	.	.	.
32C 32CC\	32c 32G< 32E<	.	.	.	.
32C 32CC\	32c 32G< 32E<	.	.	.	.
32C 32CC\	32c 32G< 32E<	.	.	.	.
32C 32CC\	32c 32G< 32E<	.	.	.	.
32C 32CC\	32c 32G< 32E<	.	.	.	.
32C 32CC\	32c 32G< 32E<	.	.	.	.
32C 32CC\	32c 32G< 32E<	.	.	.	.
32C 32CC\	32c 32G< 32E<	.	4G\	dnia	.
32C 32CC\	32c 32G< 32E<	.	.	.	.
32C 32CC\	32c 32G< 32E<	.	.	.	.
32C 32CC\	32c 32G< 32E<	.	.	.	.
32C 32CC\	32c 32G< 32E<	.	.	.	.
32C 32CC\	32c 32G< 32E<	.	.	.	.
32C 32CC\	32c 32G< 32E<	.	.	.	.
32C 32CC\	32c 32G< 32E<	.	.	.	.
32C 32CC\	32c 32G< 32E<	.	8G\	jej	.
32C 32CC\	32c 32G< 32E<	.	.	.	.
32C 32CC\	32c 32G< 32E<	.	.	.	.
32C 32CC\	32c 32G< 32E<	.	.	.	.
32C 32CC\	32c 32G< 32E<	.	8G\	przy-	.
32C 32CC\	32c 32G< 32E<	.	.	.	.
32C 32CC\	32c 32G< 32E<	.	.	.	.
32CJJJ 32CC\	32cJJJ 32G< 32E<	.	.	.	.
=83	=83	=83	=83	=83	=83
32BBnLLL 32BBBn\	32dLLL 32A-X< 32F</	.	2A-X\	-by-	.
32BB 32BBB\	32d 32A-< 32F</	.	.	.	.
32BB 32BBB\	32d 32A-< 32F</	.	.	.	.
32BB 32BBB\	32d 32A-< 32F</	.	.	.	.
32BB 32BBB\	32d 32A-< 32F</	.	.	.	.
32BB 32BBB\	32d 32A-< 32F</	.	.	.	.
32BB 32BBB\	32d 32A-< 32F</	.	.	.	.
32BB 32BBB\	32d 32A-< 32F</	.	.	.	.
32BB 32BBB\	32d 32A-< 32F</	.	.	.	.
32BB 32BBB\	32d 32A-< 32F</	.	.	.	.
32BB 32BBB\	32d 32A-< 32F</	.	.	.	.
32BB 32BBB\	32d 32A-< 32F</	.	.	.	.
32BB 32BBB\	32d 32A-< 32F</	.	.	.	.
32BB 32BBB\	32d 32A-< 32F</	.	.	.	.
32BB 32BBB\	32d 32A-< 32F</	.	.	.	.
32BB 32BBB\	32d 32A-< 32F</	.	.	.	.
32BB 32BBB\	32d 32A-< 32F</	.	4A-\	-cia	.
32BB 32BBB\	32d 32A-< 32F</	.	.	.	.
32BB 32BBB\	32d 32A-< 32F</	.	.	.	.
32BB 32BBB\	32d 32A-< 32F</	.	.	.	.
32BB 32BBB\	32d 32A-< 32F</	.	.	.	.
32BB 32BBB\	32d 32A-< 32F</	.	.	.	.
32BB 32BBB\	32d 32A-< 32F</	.	.	.	.
32BB 32BBB\	32d 32A-< 32F</	.	.	.	.
32BB 32BBB\	32d 32A-< 32F</	.	4d\	ztę-	.
32BB 32BBB\	32d 32A-< 32F</	.	.	.	.
32BB 32BBB\	32d 32A-< 32F</	.	.	.	.
32BB 32BBB\	32d 32A-< 32F</	.	.	.	.
32BB 32BBB\	32d 32A-< 32F</	.	.	.	.
32BB 32BBB\	32d 32A-< 32F</	.	.	.	.
32BB 32BBB\	32d 32A-< 32F</	.	.	.	.
32BBJJJ 32BBB\	32dJJJ 32A-< 32F</	.	.	.	.
*Xtremolo	*Xtremolo	*	*	*	*
=84	=84	=84	=84	=84	=84
4BB-X 4BBB-X\	4d 4A-X< 4F</	.	(4d\	-sknio-	.
4r	4r	.	4F\)	.	.
!	!LO:S:s=2:note:problem:note-level slur	!	!	!	!
2BB- 2BBB-\	(2d (>2G#X< (2D</	.	4.E\	-ny	.
.	.	.	8D\	cze-	.
!!LO:LB:g=original
=85	=85	=85	=85	=85	=85
!	!LO:TX:a:B:t=Allegro impetuoso ma non troppo presto.	!	!	!	!
!	!LO:S:s=2:note:problem:note-level slur	!	!	!	!
(16AALL 16AAA\	4c#X) 4A<) 4E</)	.	2A\	-ka-	.
!LO:TX:a:t=Cello	!	!	!	!	!
16GG#X\	.	.	.	.	.
16AA\	.	.	.	.	.
16GG#\JJ	.	.	.	.	.
*tremolo	*	*	*	*	*
16AA\LL	4r	.	.	.	.
16GG#\	.	.	.	.	.
16AA\	.	.	.	.	.
16GG#\	.	.	.	.	.
16AA\	2r	.	4AA/	-łem	.
16GG#\	.	.	.	.	.
16AA\	.	.	.	.	.
16GG#\	.	.	.	.	.
16AA\	.	.	4r	.	.
16GG#\	.	.	.	.	.
16AA\	.	.	.	.	.
16GG#X\JJ)	.	.	.	.	.
*Xtremolo	*	*	*	*	*
=86	=86	=86	=86	=86	=86
8AA\	16r	.	1r	.	.
.	(16BB-</LL	.	.	.	.
8rEE	16BBn</	<	.	.	.
.	16C#X</JJ	.	.	.	.
4r	16D</LL	.	.	.	.
.	16D#X</	.	.	.	.
.	16E</	.	.	.	.
.	16F</JJ	.	.	.	.
2r	16F#X</LL	.	.	.	.
.	16G</	.	.	.	.
.	16G#X</	.	.	.	.
.	16A</JJ	.	.	.	.
.	16B-X</LL	.	.	.	.
.	16Bn</	.	.	.	.
.	16cn</	.	.	.	.
.	16c#X</JJ)	[	.	.	.
=87	=87	=87	=87	=87	=87
4D 4DD/	(>16d/LL	.	2d\	Wtem	f
.	16f/	.	.	.	.
.	16e/	.	.	.	.
.	16d/JJ	.	.	.	.
8r	16c#X/LL	.	.	.	.
.	16d/	.	.	.	.
8F 8D\	16e/	.	.	.	.
.	16d/JJ	.	.	.	.
4F 4D\	16A/LL	.	4.A\	ich	.
.	16f/	.	.	.	.
.	16e/	.	.	.	.
.	16d/JJ	.	.	.	.
8r	16c#/LL	.	.	.	.
.	16d/	.	.	.	.
8F 8D\	16e/	.	8A\	na-	.
.	16d/JJ)	.	.	.	.
!!LO:PB:g=original
=88	=88	=88	=88	=88	=88
4F 4D\	(16A/LL	.	2F\	-pa-	.
.	16f/	.	.	.	.
.	16e/	.	.	.	.
.	16d/JJ	.	.	.	.
8r	16c#X/LL	.	.	.	.
.	16d/	.	.	.	.
8F 8D\	16e/	.	.	.	.
.	16d/JJ	.	.	.	.
4F 4D\	16A/LL	.	2D\	-dły	.
.	16f/	.	.	.	.
.	16e/	.	.	.	.
.	16d/JJ	.	.	.	.
8r	16c#/LL	.	.	.	.
.	16d/	.	.	.	.
8F 8D\	16e/	.	.	.	.
.	16d/JJ)	.	.	.	.
=89	=89	=89	=89	=89	=89
4E 4C#X\	(16A/LL	.	2A\	ło-	.
.	16g/	.	.	.	.
.	16f/	.	.	.	.
.	16e/JJ	.	.	.	.
8r	16d#X/LL	.	.	.	.
.	16e/	.	.	.	.
8E 8C#\	16f/	.	.	.	.
.	16e/JJ	.	.	.	.
4E 4C#\	16A/LL	.	4A\	-dzie	.
.	16g/	.	.	.	.
.	16f/	.	.	.	.
.	16e/JJ	.	.	.	.
8r	16d#/LL	.	4A\	kor-	.
.	16e/	.	.	.	.
8E 8C#\	16f/	.	.	.	.
.	16e/JJ)	.	.	.	.
=90	=90	=90	=90	=90	=90
4E 4C#X\	(16A/LL	.	2A\	-sa-	.
.	16g/	.	.	.	.
.	16f/	.	.	.	.
.	16e/JJ	.	.	.	.
8r	16d#X/LL	.	.	.	.
.	16e/	.	.	.	.
8E 8C#\	16f/	.	.	.	.
.	16e/JJ	.	.	.	.
4E 4C#\	16A/LL	.	4E\	-rzy	.
.	16g/	.	.	.	.
.	16f/	.	.	.	.
.	16e/JJ	.	.	.	.
8r	16d#/LL	.	4r	.	.
.	16e/	.	.	.	.
8E 8C#\	16f/	.	.	.	.
.	16e/JJ)	.	.	.	.
!!LO:LB:g=original
=91	=91	=91	=91	=91	=91
4F 4D\	(16A/LL	.	2F\	wal-	.
.	16f/	.	.	.	.
.	16e/	.	.	.	.
.	16d/JJ	.	.	.	.
8r	16c#X/LL	.	.	.	.
.	16d/	.	.	.	.
8F 8D\	16e/	.	.	.	.
.	16d/JJ	.	.	.	.
4F 4D\	16A/LL	.	4A\	-ka	.
.	16f/	.	.	.	.
.	16e/	.	.	.	.
.	16d/JJ	.	.	.	.
8r	16c#/LL	.	4A\	się	.
.	16d/	.	.	.	.
8F 8D\	16e/	.	.	.	.
.	16d/JJ)	.	.	.	.
=92	=92	=92	=92	=92	=92
4E-X 4BB- 4GG/	(8e-X/L	.	2B-\	wszczy-	.
.	16d/L	.	.	.	.
.	16e-/JJ)	.	.	.	.
8r	(8g/L	.	.	.	.
8E- 8BB- 8GG/	16f#X/L	.	.	.	.
.	16g/JJ)	.	.	.	.
4E- 4BB- 4GG/	(8b-/L	.	2B-\	-na	.
.	16a/L	.	.	.	.
.	16b-/JJ)	.	.	.	.
8r	(8g/L	.	.	.	.
8E- 8BB- 8GG/	16f#/L	.	.	.	.
.	16g/JJ)	.	.	.	.
=93	=93	=93	=93	=93	=93
4F 4D 4AA/	(8fn/L	.	2A\	krew	.
.	16en/L	.	.	.	.
.	16f/JJ)	.	.	.	.
8r	(8a/L	.	.	.	.
8F 8D 8AA/	16g#X/L	.	.	.	.
.	16a/JJ)	.	.	.	.
4F 4D 4AA/	(8f/L	.	4A\	pły-	.
.	16e/L	.	.	.	.
.	16f/JJ)	.	.	.	.
8r	(8d/L	.	4A\	-nie	.
8F 8D 8AA/	16c#X/L	.	.	.	.
.	16d/JJ)	.	.	.	.
!!LO:LB:g=original
=94	=94	=94	=94	=94	=94
*	*clefF4	*	*	*	*
4G 4E 4AA/	(8c#X\L	.	2A\	stru-	.
.	16B#X\L	.	.	.	.
.	16c#\JJ)	.	.	.	.
8r	(8A\L	.	.	.	.
8G 8E 8AA/	16G#X\L	.	.	.	.
.	16A\JJ)	.	.	.	.
4E 4C#X 4AA/	(8Gn\L	.	4AA/	-gą	.
.	16F#X\L	.	.	.	.
.	16G\JJ)	.	.	.	.
8r	(8E\L	.	4r	.	.
8C# 8AA/	16D#X\L	.	.	.	.
.	16E\JJ)	.	.	.	.
=95	=95	=95	=95	=95	=95
4DD/	(16Dn\LL	.	4D\	sza-	.
.	16f\	.	.	.	.
.	16e\	.	.	.	.
.	16d\JJ	.	.	.	.
8r	16c#X\LL	.	8D\	-la	.
.	16d\	.	.	.	.
8F 8D\	16e\	.	8D\	zwy-	.
.	16d\JJ	.	.	.	.
4F 4D\	16A\LL	.	4F\	-cię-	.
.	16f\	.	.	.	.
.	16e\	.	.	.	.
.	16d\JJ	.	.	.	.
8r	16c#\LL	.	4F\	-ztwa	.
.	16d\	.	.	.	.
8F 8D\	16e\	.	.	.	.
.	16d\JJ)	.	.	.	.
=96	=96	=96	=96	=96	=96
4DD/	(16A\LL	.	4A\	dłu-	.
.	16f\	.	.	.	.
.	16e\	.	.	.	.
.	16d\JJ	.	.	.	.
8r	16c#X\LL	.	8A\	-go	.
.	16d\	.	.	.	.
8F 8D\	16e\	.	8A\	się	.
.	16d\JJ	.	.	.	.
4F 4D\	16A\LL	.	4d\	wa-	.
.	16f\	.	.	.	.
.	16e\	.	.	.	.
.	16d\JJ	.	.	.	.
8r	16c#\LL	.	4d\	-ży	.
.	16d\	.	.	.	.
8F 8D\	16e\	.	.	.	.
.	16d\JJ)	.	.	.	.
!!LO:LB:g=original
=97	=97	=97	=97	=97	=97
4G 4E\	(16cn\LL	.	4c\	mę-	.
.	16g\	.	.	.	.
.	16f\	.	.	.	.
.	16e\JJ	.	.	.	.
8r	16d\LL	.	8c\	-ztwo	.
.	16c\	.	.	.	.
8G 8E\	16Bn\	.	8c\	Hi-	.
.	16c\JJ	.	.	.	.
4G 4E\	16d\LL	.	8c\	-szpa-	.
.	16c\	.	.	.	.
.	16B-X\	.	16c\	-nów	.
.	16A\JJ	.	16c\	prze-	.
8r	16G\LL	.	8c\	-ma-	.
.	16F\	.	.	.	.
8GG 8EE/	16E\	.	8c\	-ga	.
.	16D\JJ)	.	.	.	.
=98	=98	=98	=98	=98	=98
4GG 4EE/	(16C/LL	.	2c\	dłu-	.
.	16C#X/	.	.	.	.
.	16D/	.	.	.	.
.	16Cn/JJ	.	.	.	.
4r	16BB-/LL	.	.	.	.
.	16AA/	.	.	.	.
.	16GG/	.	.	.	.
.	16FF/JJ	.	.	.	.
4EEE/	16EE/LL	.	4B-\	-go	.
.	16DD/	.	.	.	.
.	16CC/	.	.	.	.
.	16CC/JJ	.	.	.	.
4r	16CC#X/LL	.	4r	.	.
.	16DD/	.	.	.	.
.	16DD#X/	.	.	.	.
.	16EE/JJ)	.	.	.	.
=99	=99	=99	=99	=99	=99
4FFF/	(8FF/L	.	8.A^\	w_koń-	.
.	16EE/L	.	.	.	.
.	16FF/JJ)	.	16A\	-cu	.
4r	(8AA/L	.	8.c^\	dzi-	.
.	16GG#X/L	.	.	.	.
.	16AA/JJ)	.	16c\	-ka	.
4AA 4FF/	(8C/L	.	8.A^\	zbój-	.
.	16BB-/L	.	.	.	.
.	16C/JJ)	.	16A\	-ców	.
8r	(8F\L	.	8.F^\	si-	.
8AA 8FF/	16E\L	.	.	.	.
.	16F\JJ)	.	16F\	-ła	.
!!LO:PB:g=original
=100	=100	=100	=100	=100	=100
4BB- 4GG 4DD-X 4BBB-/	(8G\L	.	4.D-X^\	lo-	.
.	16F#X\L	.	.	.	.
.	16G\JJ)	.	.	.	.
8r	(8d-X\L	.	.	.	.
8BB- 8GG 8DD- 8BBB-/	16c\L	.	8D-\	-sy	.
.	16d-\JJ)	.	.	.	.
4BB- 4GG 4CC/	(8c\L	.	8C/	bi-	.
.	16Bn\L	.	8C/	-twy	.
.	16c\JJ)	.	.	.	.
8r	(8C/L	.	8C/	prze-	.
8BB- 8GG 8CC/	16BBn/L	.	8C/	-wa-	.
.	16C/JJ)	.	.	.	.
=101	=101	=101	=101	=101	=101
*	*	*	*^	*	*
!	!	!	!LO:TX:a:i:t=vel.	!	!	!
!	!	!	!LO:TX:t=P:problem=slur between notes	!	!	!
4AA 4FF/	(8F\L	.	4G/	4C\	-ży-	.
.	16E\L	.	.	.	.	.
.	16F\JJ)	.	.	.	.	.
8r	(8A\L	<	4F/	4FF\	-ła	.
8C 8AA 8FF/	16G#X\L	.	.	.	.	.
.	16A\JJ)	.	.	.	.	.
4C 4AA 4FF/	(8c\L	.	2r	2ryy	.	.
.	16Bn\L	.	.	.	.	.
.	16c\JJ)	.	.	.	.	.
*	*clefG2	*	*	*	*	*
8r	(8f/L	.	.	.	.	.
8C 8AA 8FF/	16e/L	.	.	.	.	.
.	16f/JJ)	[[	.	.	.	.
*	*	*	*v	*v	*	*
=102	=102	=102	=102	=102	=102
4F 4C 4AA 4FF/	(8a/L	f	1r	.	.
.	16g#X/L	.	.	.	.
.	16a/JJ)	.	.	.	.
8r	(8cc\L	.	.	.	.
8F 8C 8AA 8FF/	16bn\L	.	.	.	.
.	16cc\JJ)	.	.	.	.
4F 4C 4AA 4FF/	(8ff\L	.	.	.	.
.	16ee\L	.	.	.	.
.	16ff\JJ)	.	.	.	.
8r	4f/	.	.	.	.
8A 8F\	.	.	.	.	.
!!LO:LB:g=original
=103	=103	=103	=103	=103	=103
4E 4C#X\	(16A/LL	mf	2.A\	Herszt	.
.	16g/	.	.	.	.
.	16f/	.	.	.	.
.	16e/JJ	.	.	.	.
8r	16d#X/LL	.	.	.	.
.	16e/	.	.	.	.
8E 8C#\	16f/	.	.	.	.
.	16e/JJ	.	.	.	.
4E 4C#\	16A/LL	.	.	.	.
.	16g/	.	.	.	.
.	16f/	.	.	.	.
.	16e/JJ	.	.	.	.
8r	16d#/LL	.	4E\	kor-	.
.	16e/	.	.	.	.
8E 8C#\	16f/	.	.	.	.
.	16e/JJ)	.	.	.	.
=104	=104	=104	=104	=104	=104
4F 4D\	(16A/LL	.	2F\	-sa-	.
.	16f/	.	.	.	.
.	16e/	.	.	.	.
.	16d/JJ	.	.	.	.
8r	16c#X/LL	.	.	.	.
.	16d/	.	.	.	.
8F 8D\	16e/	.	.	.	.
.	16d/JJ	.	.	.	.
4F 4D\	16A/LL	.	4D\	-rzy	.
.	16f/	.	.	.	.
.	16e/	.	.	.	.
.	16d/JJ	.	.	.	.
8r	16c#/LL	.	4r	.	.
.	16d/	.	.	.	.
8F 8D\	16e/	.	.	.	.
.	16d/JJ)	.	.	.	.
=105	=105	=105	=105	=105	=105
4E 4C#X\	(16A/LL	.	2.A\	sro-	.
.	16g/	.	.	.	.
.	16f/	.	.	.	.
.	16e/JJ	.	.	.	.
8r	16d#X/LL	.	.	.	.
.	16e/	.	.	.	.
8E 8C#\	16f/	.	.	.	.
.	16e/JJ	.	.	.	.
4E 4C#\	16A/LL	.	.	.	.
.	16g/	.	.	.	.
.	16f/	.	.	.	.
.	16e/JJ	.	.	.	.
8r	16d#/LL	.	4E\	-giéj	.
.	16e/	.	.	.	.
8E 8C#\	16f/	.	.	.	.
.	16e/JJ)	.	.	.	.
!!LO:LB:g=original
=106	=106	=106	=106	=106	=106
4F 4D\	(16A/LL	.	4F\	sła-	.
.	16f/	.	.	.	.
.	16e/	.	.	.	.
.	16d/JJ	.	.	.	.
8r	16c#X/LL	.	8D\	-wy	.
.	16d/	.	.	.	.
8F 8D\	16e/	.	8r	.	.
.	16d/JJ	.	.	.	.
4F 4D\	16A/LL	.	4A\	zna-	.
.	16f/	.	.	.	.
.	16e/	.	.	.	.
.	16d/JJ	.	.	.	.
8r	16c#/LL	.	4A\	-ny	.
.	16d/	.	.	.	.
8F 8D\	16e/	.	.	.	.
.	16d/JJ)	.	.	.	.
*	*clefF4	*	*	*	*
=107	=107	=107	=107	=107	=107
2.E-X 2.BB- 2.GG/	(8e-X^<\L	ff	4B-\	świa-	.
.	16d\L	.	.	.	.
.	16e-\JJ)	.	.	.	.
.	(8B-^<\L	.	4B-\	-tu	.
.	16A\L	.	.	.	.
.	16B-\JJ)	.	.	.	.
.	(8G^<\L	.	4G\	Van	.
.	16F#X\L	.	.	.	.
.	16G\JJ)	.	.	.	.
4BB- 4GG/	(8E-X^<\L	.	4E-X\	Horn	.
.	16D\L	.	.	.	.
.	16E-\JJ)	.	.	.	.
=108	=108	=108	=108	=108	=108
2.BB- 2.AA-X/	(8D\L	.	(4.BB-/	krwa-	.
.	16C#X\L	.	.	.	.
.	16D\JJ)	.	.	.	.
.	(8F\L	.	.	.	.
.	16En\L	.	8C/)	.	.
.	16F\JJ)	.	.	.	.
.	(8B-\L	.	4BB-/	-wy	.
.	16A\L	.	.	.	.
.	16B-\JJ)	.	.	.	.
4F 4BB- 4AA-/	(8d\L	.	8B-\	w_ko-	.
.	16c#X\L	.	8B-\	-ło	.
.	16d\JJ)	.	.	.	.
!!LO:LB:g=original
=109	=109	=109	=109	=109	=109
2.E-X 2.BB- 2.GG/	(8e-X^<\L	.	4B-\	ście-	.
.	16d\L	.	.	.	.
.	16e-\JJ)	.	.	.	.
.	(8B-^<\L	.	4B-\	-ląc	.
.	16A\L	.	.	.	.
.	16B-\JJ)	.	.	.	.
.	(8G^<\L	.	4G\	tru-	.
.	16F#X\L	.	.	.	.
.	16G\JJ)	.	.	.	.
4BB- 4GG/	(8E-X^<\L	.	4E-X\	-pów	.
.	16D\L	.	.	.	.
.	16E-\JJ)	.	.	.	.
=110	=110	=110	=110	=110	=110
2.BB- 2.AA-X/	(8D\L	.	2BB-/	stos	.
.	16C#X\L	.	.	.	.
.	16D\JJ)	.	.	.	.
.	(8F\L	.	.	.	.
.	16En\L	.	.	.	.
.	16F\JJ)	.	.	.	.
.	(8B-\L	.	2r	.	.
.	16A\L	.	.	.	.
.	16B-\JJ)	.	.	.	.
4F 4BB- 4AA-/	(8d\L	.	.	.	.
.	16c#X\L	.	.	.	.
.	16d\JJ)	.	.	.	.
=111	=111	=111	=111	=111	=111
!	!LO:SIC:v:o=(8e\L	!	!	!	!
4E-X 4BB- 4GG/	(8e-\L	.	2E-X\	oj-	.
.	16d\L	.	.	.	.
!	!LO:SIC:v:o=16e\JJ)	!	!	!	!
.	16e-\JJ)	.	.	.	.
4r	(8E-X\L	.	.	.	.
.	16D\L	.	.	.	.
.	16E-\JJ)	.	.	.	.
[2BB- [2GG/	(8D\L	.	2D\	-cu	.
.	16C#X\L	.	.	.	.
.	16D\JJ)	.	.	.	.
.	(8D\L	.	.	.	.
.	16C#\L	.	.	.	.
.	16D\JJ)	.	.	.	.
!!LO:PB:g=original
=112	=112	=112	=112	=112	=112
2BB-] 2GG/]	(8C#X/L	.	(2C#X/	za-	.
.	16BB#X/L	.	.	.	.
.	16C#/JJ)	.	.	.	.
.	(8C#/L	.	.	.	.
.	16BB#/L	.	.	.	.
.	16C#/JJ)	.	.	.	.
2BBn 2GG#X/	(8D/L	.	4D\)	.	.
.	16C#/L	.	.	.	.
.	16D/JJ)	.	.	.	.
.	(8F\L	.	4F\	-dał	.
.	16En\L	.	.	.	.
.	16F\JJ)	.	.	.	.
=113	=113	=113	=113	=113	=113
2AA/	8A\L	.	2A\	stra-	.
.	16G#X\L	.	.	.	.
.	16A\JJ	.	.	.	.
.	16Gn\LL	.	.	.	.
.	16F\	.	.	.	.
.	16E\	.	.	.	.
.	16D\JJ	.	.	.	.
2AAA/	16C#X/LL	.	2C#X/	-szny	.
.	16BB-/	.	.	.	.
.	16AA/	.	.	.	.
.	16BB-/JJ	.	.	.	.
.	16AA/LL	.	.	.	.
.	16GG/	.	.	.	.
.	16FF/	.	.	.	.
.	16EE/JJ	.	.	.	.
=114	=114	=114	=114	=114	=114
*tremolo	*	*	*	*	*
!	!	!LO:DY:b=2	!	!	!
(16DD/LL	2r	fp	4D\	cios	.
16CC#X/	.	.	.	.	.
16DD/	.	.	.	.	.
16CC#/	.	.	.	.	.
16DD/	.	.	4r	.	.
16CC#/	.	.	.	.	.
16DD/	.	.	.	.	.
16CC#X/JJ	.	.	.	.	.
*	*clefG2	*	*	*	*
.	(16qqaa/LL	.	.	.	.
.	16qqbbn/	.	.	.	.
.	16qqccc#X/JJ	.	.	.	.
16DD/LL	4ddd\)	p	4D\	ach!	.
16CC#/	.	.	.	.	.
16DD/	.	.	.	.	.
16CC#/	.	.	.	.	.
16DD/	4r	.	4D\	na	.
16CC#/	.	.	.	.	.
16DD/	.	.	.	.	.
16CC#/JJ)	.	.	.	.	.
!!LO:LB:g=original
=115	=115	=115	=115	=115	=115
!	!LO:S:s=2:note:problem:note-level slur	!	!	!	!
(16DD/LL	(1B-< (>1G<	.	4D\	masz-	.
16CC#X/	.	.	.	.	.
16DD/	.	.	.	.	.
16CC#/	.	.	.	.	.
16DD/	.	.	4D\	-cie	.
16CC#/	.	.	.	.	.
16DD/	.	.	.	.	.
16CC#X/JJ	.	.	.	.	.
16DD/LL	.	.	4D\	wpo-	.
16CC#/	.	.	.	.	.
16DD/	.	.	.	.	.
16CC#/	.	.	.	.	.
16DD/	.	.	4E\	-śród	.
16CC#/	.	.	.	.	.
16DD/	.	.	.	.	.
16CC#/JJ)	.	.	.	.	.
=116	=116	=116	=116	=116	=116
(16DD/LL	4A< 4F</))	.	4F\	mąk	.
16CC#X/	.	.	.	.	.
16DD/	.	.	.	.	.
16CC#/	.	.	.	.	.
16DD/	4r	.	4r	.	.
16CC#/	.	.	.	.	.
16DD/	.	.	.	.	.
16CC#X/JJ	.	.	.	.	.
.	(16qqaa/LL	.	.	.	.
.	16qqbbn/	.	.	.	.
.	16qqccc#X/JJ	.	.	.	.
16DD/LL	4ddd\)	.	4D\	po-	.
16CC#/	.	.	.	.	.
16DD/	.	.	.	.	.
16CC#/	.	.	.	.	.
16DD/	4r	.	4D\	-niósł	.
16CC#/	.	.	.	.	.
16DD/	.	.	.	.	.
16CC#/JJ)	.	.	.	.	.
=117	=117	=117	=117	=117	=117
(16DD/LL	1B-< 1G<	.	4D\	śmierć	.
16CC#X/	.	.	.	.	.
16DD/	.	.	.	.	.
16CC#/	.	.	.	.	.
16DD/	.	.	4D\	z_zbó-	.
16CC#/	.	.	.	.	.
16DD/	.	.	.	.	.
16CC#X/JJ	.	.	.	.	.
16DD/LL	.	.	4D\	-je-	.
16CC#/	.	.	.	.	.
16DD/	.	.	.	.	.
16CC#/	.	.	.	.	.
16DD/	.	.	4E\	-ckich	.
16CC#/	.	.	.	.	.
16DD/	.	.	.	.	.
16CC#/JJ)	.	.	.	.	.
*Xtremolo	*	*	*	*	*
=118	=118	=118	=118	=118	=118
2DD;<\	2A< 2F<;/	.	4F\	rąk	.
.	.	.	4r	.	.
!	!LO:TX:b:B:t=Recit&colon;	!	!LO:TX:a:B:t=Recit&colon;	!	!
2r	2r	.	8r	.	.
.	.	.	8D\	Nie	.
.	.	.	8D\	na	.
.	.	.	8E\	tem	.
!!LO:LB:g=original
=119	=119	=119	=119	=119	=119
1r	1r	.	4G\	ko-	.
.	.	.	8F\	-niec	.
.	.	.	8r	.	.
.	.	.	8F\	o-	.
.	.	.	8F\	-pła-	.
.	.	.	8.G\	-ka-	.
.	.	.	16A\	-néj	.
=120	=120	=120	=120	=120	=120
1r;	1r;	.	2A;\	do-	.
.	.	.	4D\	-li	.
.	.	.	4r;	.	.
=121	=121	=121	=121	=121	=121
4BB- 4BBB-/	4ddd 4gg#X 4ff 4dd\	sf	2d\	Ma-	.
4r	4r	.	.	.	.
2r	2r	.	4c\	-tka	.
.	.	.	4B-\	twa	.
=122	=122	=122	=122	=122	=122
1r	1r	.	4B-\	pa-	.
.	.	.	8A\	-dła	.
.	.	.	8G#X\	o-	.
.	.	.	4G#\	-fia-	.
.	.	.	8F#X\	-rą	.
.	.	.	8G#\	nie-	.
!!LO:LB:g=original
=123	=123	=123	=123	=123	=123
!	!LO:TX:a:t=Oboe\nClar:rj	!	!	!	!
!LO:TX:a:t=Fag:rj	!LO:TX:a:B:t=Poco più lento	!	!LO:TX:a:i:t=(zasłania oczy)	!	!
1c#X 1A	1a 1e	f >]	2A\	-wo-	.
.	.	.	8qB-/	.	.
.	.	.	4A\	-li	.
.	.	.	4r	.	.
=124	=124	=124	=124	=124	=124
*^	*^	*	*	*	*
1d	2A-X\	(2b-/	1f	.	1r	.	.
.	2G\	2bn/	.	.	.	.	.
=125	=125	=125	=125	=125	=125	=125	=125
2c/	1C	2cc/	2e\	<	1r	.	.
2B-X/	.	2ee/	2g\	[[	.	.	.
=126	=126	=126	=126	=126	=126	=126	=126
2.A-X/	2F\	2ff/	1f	>	1r	.	.
.	2D-X\	2bn/)	.	.	.	.	.
[4G/	.	.	.	]	.	.	.
*	*	*v	*v	*	*	*	*
=127	=127	=127	=127	=127	=127	=127
2G;/]	2C;\	2cc 2e;/	p	2r;	.	.
4r;	2ryy	4r;	.	4r;	.	.
4r	.	4r	.	4c\	Gdy	.
*v	*v	*	*	*	*	*
!!LO:PB:g=original
=128||	=128||	=128||	=128||	=128||	=128||
!!!OMD: Allegro agitato.
*k[b-e-a-d-]	*k[b-e-a-d-]	*	*k[b-e-a-d-]	*	*
8FF 8FFF/	8r	f	4d-\	mnie	.
8r	8f 8c 8A-/	p	.	.	.
8AA- 8AAA-/	8r	.	4c\	o-	.
8r	8f 8c 8A-/	.	.	.	.
8C 8CC/	8r	.	4A-\	-kro-	.
8r	8f 8c 8A-/	.	.	.	.
8F 8FF/	8r	.	8F\	-pna	.
8r	8f 8c 8A-/	.	8F\	do-	.
=129	=129	=129	=129	=129	=129
8FF 8FFF/	8r	f	4.C/	-bie-	.
8r	8f 8c 8A-/	p	.	.	.
8AA- 8AAA-/	8r	.	.	.	.
8r	8f 8c 8A-/	.	8D-\	-gła	.
8C 8CC/	8r	.	8C/	wieść	.
8r	8f 8c 8A-/	.	8F\	pod-	.
8F 8FF/	8r	.	8F\	-nie-	.
8r	8f 8c 8A-/	.	8F\	-con	.
=130	=130	=130	=130	=130	=130
8En 8EEn/	8r	f	4G\	si-	.
8r	8g 8c 8B-</	.	.	.	.
!	!	!LO:DY:rj	!	!	!
8G 8GG/	8r	p	8G\	-łą	.
8r	8g 8c 8B-</	.	8G\	roz-	.
8E 8EE/	8r	.	(4G\	-pa-	.
8r	8g 8c 8B-</	.	.	.	.
8C 8CC/	8r	.	8En\)	.	.
8r	8g 8c 8B-</	.	8C/	-czy	.
!!LO:LB:g=original
=131	=131	=131	=131	=131	=131
8FF 8FFF/	8r	f	2A-\	wście-	.
8r	8f 8c 8A-</	.	.	.	.
8AA- 8AAA-/	8r	p	.	.	.
8r	8f 8c 8A-</	.	.	.	.
8C 8CC/	8r	.	4F\	-kłą	.
8r	8f 8c 8A-</	.	.	.	.
8F 8FF/	8r	.	4c\	by	.
8r	8f 8c 8A-</	.	.	.	.
=132	=132	=132	=132	=132	=132
8FF 8FFF/	8r	f	4d-^\	pom-	.
8r	8f 8c 8A-</	.	.	.	.
8AA- 8AAA-/	8r	p	4c^\	-ścić	.
8r	8f 8c 8A-</	.	.	.	.
8C 8CC/	8r	.	4A-^\	żo-	.
8r	8f 8c 8A-</	.	.	.	.
8F 8FF/	8r	.	8F\	-ny	.
8r	8f 8c 8A-</	.	8F\	i	.
=133	=133	=133	=133	=133	=133
8FF 8FFF/	8r	f	4.C/	oj-	.
8r	8f 8c 8A-</	.	.	.	.
8AA- 8AAA-/	8r	p	.	.	.
8r	8f 8c 8A-</	.	8D-\	-ca	.
8C 8CC/	8r	.	4C/	cześć	.
8r	8f 8c 8A-</	.	.	.	.
8F 8FF/	8r	.	8r	.	.
8r	8f 8c 8A-</	.	8A-\	sza-	.
=134	=134	=134	=134	=134	=134
8GG 8GGG/	8r	f	8B-\	-lo-	.
8r	8e- 8d- 8B-</	.	8A-\	-ny	.
!	!	!LO:DY:rj	!	!	!
8BB- 8BBB-/	8r	p	(8G\L	w_po-	.
8r	8e- 8d- 8B-</	.	8F\J)	.	.
8GG 8GGG/	8r	.	8E-X\	-moc	.
8r	8e- 8d- 8B-</	.	8Dn\	przy-	.
8EE- 8EEE-/	8r	.	8D-X\	-zy-	.
8r	8e- 8d- 8B-</	.	8BB-/	-wam	.
!!LO:LB:g=original
=135	=135	=135	=135	=135	=135
8AA- 8AAA-/	8r	f	2AA-/	pie-	.
8r	8e- 8c 8A-</	.	.	.	.
8C 8CC/	8r	p	.	.	.
8r	8e- 8c 8A-</	.	.	.	.
.	.	.	(16qqC/LL	.	.
.	.	.	16qqBB-/JJ	.	.
8E- 8EE-/	8r	.	8AA-/)	-kło	.
8r	8e- 8c 8A-</	.	8c\	z_dziel-	.
8A- 8AA-\	8r	.	8c\	-ném	.
8r	8e- 8c 8A-</	.	8c\	ry-	.
=136	=136	=136	=136	=136	=136
8G 8GG/	8r	f	4c\	-cer-	.
8r	8en 8c 8B-</	.	.	.	.
8G 8GG/	8r	p	4G\	-stwem	.
8r	8e 8c 8B-</	.	.	.	.
8C 8CC/	8r	.	4G\	le-	.
8r	8e 8c 8B-</	.	.	.	.
8C 8CC/	8r	.	8F\	-cim	.
8r	8e 8c 8B-</	.	8G\	na	.
=137	=137	=137	=137	=137	=137
8FF 8FFF/	8r	f	4A-\	wro-	.
8r	8f 8c 8A-</	.	.	.	.
8AA- 8AAA-/	8r	p	8F\	-ga	.
8r	8f 8c 8A-</	.	8r	.	.
8C 8CC/	8r	.	4A-\	jak	.
8r	8f 8c 8A-</	.	.	.	.
8F 8FF/	8r	.	8A-\	sta-	.
8r	8f 8c 8A-</	.	8A-\	-do	.
=138	=138	=138	=138	=138	=138
8E- 8EE-/	8r	f	4A-\	or-	.
8r	8g-X 8c 8A-</	.	.	.	.
8E- 8EE-/	8r	p	8A-\	-łów	.
8r	8g- 8c 8A-</	.	8c\	za	.
8AA- 8AAA-/	8r	.	4e-\	krwa-	.
8r	8g- 8c 8A-</	.	.	.	.
8AA- 8AAA-/	8r	.	4A-\	-wym	.
8r	8g- 8c 8A-</	.	.	.	.
!!LO:LB:g=original
=139	=139	=139	=139	=139	=139
8D- 8DD-/	8r	f	4d-\	łu-	.
8r	8f 8d- 8A-</	.	.	.	.
!	!	!LO:DY:rj	!	!	!
8F 8FF/	8r	p	4D-\	-pem	.
8r	8f 8d- 8A-</	.	.	.	.
8A- 8AA-\	8r	.	8r	.	.
8r	8f 8d- 8A-</	.	8D-\	bły-	.
8D- 8DD-/	8r	.	8D-\	-ska-	.
8r	8f 8d- 8A-</	.	8D-\	-ją	.
=140	=140	=140	=140	=140	=140
8GG-X 8GGG-X/	8r	f	4d-^\	mie-	.
8r	8g-X 8d- 8B-</	.	.	.	.
!	!	!LO:DY:rj	!	!	!
8BB- 8BBB-/	8r	p	4D-\	-cze	.
8r	8g- 8d- 8B-</	.	.	.	.
8D- 8DD-/	8r	.	4D-^\	wre	.
8r	8g- 8d- 8B--</	.	.	.	.
8G-X 8GG-X/	8r	.	8D-\	wal-	.
8r	8g- 8d- 8B--</	.	8E-\	-ka	.
=141	=141	=141	=141	=141	=141
8D- 8DD-/	8r	f	4F^\	sro-	.
8r	8f 8d- 8A-</	.	.	.	.
!	!	!LO:DY:rj	!	!	!
8F 8FF/	8r	p	8D-\	-ga	.
8r	8f 8d- 8A-</	.	8r	.	.
8A- 8AA-\	8r	.	4D-\	ca-	.
8r	8f 8d- 8A-</	.	.	.	.
8D- 8DD-/	8r	.	8D-\	-łe	.
8r	8f 8d- 8A-</	.	8D-\	wy-	.
!!LO:PB:g=original
=142	=142	=142	=142	=142	=142
8GG-X 8GGG-X/	8r	f	4d-\	-brze-	.
8r	8g-X 8d- 8B-</	.	.	.	.
!	!	!LO:DY:rj	!	!	!
8BB- 8BBB-/	8r	p	8D-\	-że	.
8r	8g- 8d- 8B-</	.	8D-\	za-	.
8D- 8DD-/	8r	.	4D-^\	-sła-	.
8r	8g- 8d- 8B--</	.	.	.	.
8G-X 8GG-X/	8r	.	4E-^\	-ne	.
8r	8g- 8d- 8B--</	.	.	.	.
=143	=143	=143	=143	=143	=143
8D- 8DD-/	8r	f	4F^\	tru-	.
8r	8f 8d- 8A-</	.	.	.	.
!	!	!LO:DY:rj	!	!	!
8D- 8DD-/	8r	p	8D-\	-pem	.
8r	8f 8d- 8A-</	.	8A-\	i	.
8D- 8DD-/	8r	.	8A-\	gdy	.
8r	8f 8d- 8A-</	.	8A-\	pierz-	.
8D- 8DD-/	8r	.	8A-\	-cha-	.
8r	8f 8d- 8A-</	.	8A-\	-ją	.
=144	=144	=144	=144	=144	=144
8D- 8DD-/	8r	.	8A-\	tłu-	.
8r	8f 8A-</	.	16A-\	-my	.
!	!LO:TX:b:Bi:t=cres-:problem:dynamics with extension lines	!LO:HP:t=cres	!	!	!
.	.	<	16A-\	spło-	.
8D- 8DD-/	8r	.	8A-\	-szo-	.
8r	8f 8A-</	.	8A-\	-ne	.
8D- 8DD-/	8r	.	4An\	z_pa-	.
8r	8f 8An</	.	.	.	.
8D- 8DD-/	8r	.	8A\	-szczy	.
8r	8f 8A</	[[	8A\	Van	.
!!LO:LB:g=original
=145	=145	=145	=145	=145	=145
!	!LO:TX:b:Bi:t=cres-:problem:dynamics with extension lines	!LO:HP:t=cres	!	!	!
8D- 8DD-/	8r	<	4B-\	Hor-	.
8rAA	8f 8B-< 8F</	.	.	.	.
8D- 8DD-/	8r	.	8B-\	-na	.
8rAA	8f 8B-< 8F</	.	8B-\	wy-	.
8D- 8DD-/	8r	.	4.Bn\	-dzie-	.
8rAA	8f 8Bn< 8F</	.	.	.	.
8D- 8DD-/	8r	.	.	.	.
8rAA	8f 8B< 8F</	[[	8B\	-ram	.
=146	=146	=146	=146	=146	=146
8C 8CC/	8r	f	1c	żo-	.
8r	8en 8c 8G</	.	.	.	.
8C 8CC/	8r	>	.	.	.
8r	8ccc 8gg 8een\	.	.	.	.
8En 8EEn/	8r	.	.	.	.
8r	8gg 8ee 8cc\	.	.	.	.
8G 8GG/	8r	.	.	.	.
8r	8een 8cc 8g\	]]	.	.	.
=147	=147	=147	=147	=147	=147
8c 8C\	8r	p	2C/	-nę	.
8r	8b- 8g 8en/	.	.	.	.
8C 8CC/	8r	.	.	.	.
8r	8b- 8g 8c/	.	.	.	.
8C 8CC/	8r	.	4r	.	.
8r	8an 8f 8c/	.	.	.	.
8C 8CC/	8r	.	4c\	Lecz	.
8r	8g 8e 8c/	.	.	.	.
!!LO:LB:g=original
=148||	=148||	=148||	=148||	=148||	=148||
*k[b-]	*k[b-]	*	*k[b-]	*	*
8FF 8FFF/	8r	fp	4d\	znikł	.
8r	8f 8c 8A</	.	.	.	.
8AA 8AAA/	8r	p	4c\	bez	.
8r	8f 8c 8A</	.	.	.	.
8C 8CC/	8r	.	4A\	wie-	.
8r	8f 8c 8A</	.	.	.	.
8F 8FF/	8r	.	8F\	-ści	.
8r	8f 8c 8A</	.	8F\	mor-	.
=149	=149	=149	=149	=149	=149
8C 8CC/	8r	.	(4A\	-der-	.
8r	8e 8c 8B-</	.	.	.	.
8E 8EE/	8r	.	8G\)	.	.
8r	8e 8c 8B-</	.	8E\	-czy	.
8G 8GG/	8r	.	4C/	wódz	.
8r	8e 8c 8B-</	.	.	.	.
8C 8CC/	8r	.	8r	.	.
8r	8e 8c 8B-</	.	8c\	Ta	.
=150	=150	=150	=150	=150	=150
8FF 8FFF/	8r	fp	4d\	myśl	.
8r	8f 8c 8A</	.	.	.	.
8AA 8AAA/	8r	p	4c\	jak	.
8r	8f 8c 8A</	.	.	.	.
8C 8CC/	8r	.	4A\	szty-	.
8r	8f 8c 8A</	.	.	.	.
8F 8FF/	8r	.	8F\	-let	.
8r	8f 8c 8A</	.	8F\	w_méj	.
=151	=151	=151	=151	=151	=151
8C 8CC/	8r	.	(4A\	du-	.
8r	8e 8c 8B-</	.	.	.	.
8E 8EE/	8r	.	8G\)	.	.
8r	8e 8c 8B-</	.	8E\	-szy	.
8G 8GG/	8r	.	4C/	tkwi	.
8r	8e 8c 8B-</	.	.	.	.
8C 8CC/	8r	.	4r	.	.
8r	8e 8c 8B-</	.	.	.	.
!!LO:LB:g=original
=152	=152	=152	=152	=152	=152
8F 8FF/	8r	.	4F\	Jam	.
8r	8f 8c 8A</	.	.	.	.
8D 8DD/	8r	.	8F#X\	nik-	.
8r	8f#X 8d 8c/	.	8F#\	-czem-	.
8G 8GG/	8r	.	4G\	-ni-	.
8r	8g 8d 8B-/	.	.	.	.
8E-X 8EE-X/	8r	.	8G\	-ka	.
8r	8g 8e-X 8d-X/	.	8G\	nie-	.
=153	=153	=153	=153	=153	=153
8A-X 8AA-X\	8r	.	4A-X\	-zdo-	.
8r	8a-X 8e-X 8c/	.	.	.	.
8A- 8AA-\	8r	.	4A-\	-łał	.
8r	8f#X 8c 8A/	.	.	.	.
8D-X 8DD-X/	8r	.	4d-X\	zmódz,	.
8r	8f# 8d-X 8A/	.	.	.	.
8D- 8DD-/	8r	.	4Bn\	nie	.
8r	8f# 8A/	.	.	.	.
=154	=154	=154	=154	=154	=154
8C 8CC/	8r	.	2.c\	zdo-	.
8r	8f 8c 8An/	.	.	.	.
8C 8CC/	8r	.	.	.	.
8r	8f 8c 8A/	.	.	.	.
8C 8CC/	8r	.	.	.	.
8r	8en 8c 8B-</	.	.	.	.
8C 8CC/	8r	.	4c\	-łał	.
8r	8e 8c 8B-</	.	.	.	.
=155	=155	=155	=155	=155	=155
8F 8FF/	8r	p	8F\	zmódz,	.
8r	8f 8c 8A</	.	8r	.	.
8D 8DD/	8r	.	4F#X\	ni	.
8r	8f#X 8d 8c/	.	.	.	.
8G 8GG/	8r	.	4G\	mie-	.
8r	8g 8d 8B-/	.	.	.	.
8E-X 8EE-X/	8r	.	4G\	-cza	.
8r	8g 8e-X 8d-X/	.	.	.	.
!!LO:PB:g=original
=156	=156	=156	=156	=156	=156
8A-X 8AA-X\	8r	.	4A-X\	w_je-	.
8r	8a-X 8e-X 8c/	.	.	.	.
8A- 8AA-\	8r	.	8A-\	-go	.
8r	8g-X 8c 8A-y</	.	8A-\	nie	.
8D-X 8DD-X/	8r	.	4d-X\	ską-	.
8r	8f 8d-X 8A-</	.	.	.	.
8D- 8DD-/	8r	.	8Bn\	-pał	.
8r	8f 8A-</	.	8B\	nie	.
=157	=157	=157	=157	=157	=157
8C 8CC\	8r	f	[1c	ską-	.
8r	8f 8c 8An</	.	.	.	.
8C 8CC\	8r	.	.	.	.
8r	8f 8c 8A</	.	.	.	.
8F 8FF\	8r	.	.	.	.
8r	8f 8c 8A</	.	.	.	.
8A 8AA\	8r	.	.	.	.
8r	8f 8c 8A</	.	.	.	.
=158	=158	=158	=158	=158	=158
8c 8C\	8r	.	2.c\]	.	.
8r	8e 8c 8B-</	<	.	.	.
8C 8CC/	8r	.	.	.	.
8r	8e 8c 8B-</	.	.	.	.
8C 8CC/	8r	.	.	.	.
8r	8e 8c 8B-</	.	.	.	.
8C 8CC/	8r	.	4c\	-pał	.
8r	8e 8c 8B-</	[[	.	.	.
=159	=159	=159	=159	=159	=159
8F 8FF\	8f 8c 8A</	ff	4F\	krwi	.
8r	8r	.	.	.	.
4BB- 4BBB-/	4dd-X 4g 4f/	sf	4r	.	.
4BB- 4BBB-/	4dd- 4g 4f/	sf	4d-X^\	Te-	.
4BB- 4BBB-/	4dd- 4g 4f/	sf	8d-^\	-raz	.
.	.	.	8d-^\	nie	.
!!LO:LB:g=original
=160	=160	=160	=160	=160	=160
8C 8CC/	8cc 8g 8e/	sf	4c^\	płon-	.
8r	8r	.	.	.	.
4B- 4G 4C\	(8ccc\L	ff	8c\	-ną	.
.	16bbn\L	.	8c\	na-	.
.	16ccc\JJ)	.	.	.	.
4B- 4G 4C\	(8ddd^<\L	.	4c\	-dzie-	.
.	16ccc\L	.	.	.	.
.	16ddd\JJ)	.	.	.	.
4B- 4G 4C\	(8eee^<\L	.	4c\	-ję	.
.	16ddd\L	.	.	.	.
.	16eee\JJ)	.	.	.	.
=161	=161	=161	=161	=161	=161
4A 4F\	4fff\	.	4G\	mam,	.
4BB- 4BBB-/	4dd-X 4g 4f^/	.	4d-X^\	że	.
4BB- 4BBB-/	4dd- 4g 4f^/	.	4d-^\	krew	.
4BB- 4BBB-/	4dd- 4g 4f^/	.	4d-^\	mor-	.
=162	=162	=162	=162	=162	=162
4C 4CC/	4cc 4g 4e/	.	4c^\	-der-	.
4B- 4G 4C\	(8ccc^<\L	.	8c\	-cy	.
.	16bbn\L	.	8c\	prze-	.
.	16ccc\JJ)	.	.	.	.
4B- 4G 4C\	(8ddd^<\L	.	4c\	-le-	.
.	16ccc\L	.	.	.	.
.	16ddd\JJ)	.	.	.	.
4B- 4G 4C\	(8eee^<\L	.	4c\	-ję	.
.	16ddd\L	.	.	.	.
.	16eee\JJ)	.	.	.	.
=163	=163	=163	=163	=163	=163
4A 4F\	4fff\	.	4F\	sam	.
*	*8va	*	*	*	*
4B- 4BB-\	4ddd-X 4gg 4ff/	sf	8r	.	.
.	.	.	8d-X\	że	.
4c 4C\	4ccc 4gg 4ee/	sf	4.c\	krew	.
4C 4CC/	4eee 4bb- 4gg\	sf	.	.	.
.	.	.	8c\	mor-	.
!!LO:LB:g=original
=164	=164	=164	=164	=164	=164
4F 4FF/	4fff 4aa 4ff\	sf	8c\	-der-	.
.	.	.	8F\	-czy	.
4B- 4BB-\	4ddd-X 4gg 4ff/	sf	8r	.	.
.	.	.	8d-X\	prze-	.
4c 4C\	4ccc 4gg 4ee/	sf	4c\	-le-	.
4C 4CC/	4eee 4bb- 4gg\	sf	4c\	-ję	.
=165	=165	=165	=165	=165	=165
4F 4FF/	4fff 4aa 4ff\	sf	4F\	sam	.
4B- 4BB-\	4ddd-X 4gg 4ff/	sf	8r	.	.
.	.	.	8d-X\	że	.
4c 4C\	4ccc 4gg 4ee/	sf	4.c\	krew	.
4C 4CC/	4eee 4bb- 4gg\	sf	.	.	.
.	.	.	8c\	mor-	.
=166	=166	=166	=166	=166	=166
4F 4FF/	4fff 4aa 4ff\	.	8c\	-der-	.
.	.	.	8F\	-cy	.
4B- 4BB-\	4ddd-X 4gg 4ff/	sf	4r	.	.
4c 4C\	4ccc 4gg 4ee/	sf	4.c\	sam	.
4C 4CC/	4eee 4bb- 4gg\	sf	.	.	.
.	.	.	8c\	prze-	.
=167	=167	=167	=167	=167	=167
*tremolo	*	*	*	*	*
!	!	!LO:DY:rj	!	!	!LO:DY:rj
8FL 8C 8AA 8FF/	(8fffL 8aa 8ff\	ff	(1f	-le-	ff
8F 8C 8AA 8FF/	16eee\L	.	.	.	.
.	16fff\JJ)	.	.	.	.
8F 8C 8AA 8FF/	(8ccc\L	.	.	.	.
8FJ 8C 8AA 8FF/	16bbn\L	.	.	.	.
.	16ccc\JJ)	.	.	.	.
*	*X8va	*	*	*	*
8FL 8C 8AA 8FF/	(8aa\L	.	.	.	.
8F 8C 8AA 8FF/	16gg#X\L	.	.	.	.
.	16aa\JJ)	.	.	.	.
8F 8C 8AA 8FF/	(8ff\L	.	.	.	.
8FJ 8C 8AA 8FF/	16ee\L	.	.	.	.
.	16ff\JJ)	.	.	.	.
!!LO:LB:g=original
=168	=168	=168	=168	=168	=168
8FL 8C 8AA 8FF/	(8cc\L	.	4F\)	-ję	.
8F 8C 8AA 8FF/	16bn\L	.	.	.	.
.	16cc\JJ)	.	.	.	.
8F 8C 8AA 8FF/	(8a/L	.	4r	.	.
8FJ 8C 8AA 8FF/	16g#X/L	.	.	.	.
.	16a/JJ)	.	.	.	.
*Xtremolo	*	*	*	*	*
8FL 8C 8AA 8FF/	8f/L	.	2r	.	.
8C 8CC/	8c/	.	.	.	.
8F 8FF/	8f/	.	.	.	.
8CJ 8CC/	8c/J	.	.	.	.
=169	=169	=169	=169	=169	=169
4F 4FF/	4f/	.	1r	.	.
4r	4r	.	.	.	.
4F 4FF/	4aa 4ff 4cc 4a\	sf	.	.	.
4r	4r	.	.	.	.
*	*	*	*clefG2	*	*
=170	=170	=170	=170	=170	=170
!	!	!	!LO:TX:a:B:t=DONA MARYA. Recit&colon;	!	!
2FF 2FFF;</	2f 2c 2A<;/	.	2r;	.	.
2r	2r	.	4.cc\	Bądź	.
.	.	.	8b-\	o-	.
=171	=171	=171	=171	=171	=171
1r	1r	.	4b-\	-stroż-	.
.	.	.	4a/	-ny	.
.	.	.	4.a/	oj-	.
.	.	.	8g/	-cze	.
!!LO:PB:g=original
=172	=172	=172	=172	=172	=172
1r	1r	.	4g/	dro-	.
.	.	.	8f/	-gi	.
.	.	.	8r	.	.
.	.	.	8.f/	Wróg	.
.	.	.	16g/	pod-	.
.	.	.	16a/	-słu-	.
.	.	.	16b-\	-chać	.
.	.	.	16cc\	nas	.
.	.	.	16cc#X\	tu	.
=173	=173	=173	=173	=173	=173
!	!LO:TX:a:B:t=Allegro.	!	!	!	!
8r	8r	.	4dd\	mo-	.
16BB-/LL	16B-/LL	f	.	.	.
16C/JJ	16c/JJ	.	.	.	.
16D/LL	16d/LL	.	8b-\	-że	.
16E-X/	16e-X/	.	.	.	.
16F/	16f/	.	8r	.	.
16D/JJ	16d/JJ	.	.	.	.
4BB-/	4B-/	.	4r	.	.
!	!LO:TX:a:B:t=Recit.	!	!	!	!
4r	4r	.	8.dd\	Ktoś	.
.	.	.	16cc\	się	.
=174	=174	=174	=174	=174	=174
4r;	4r;	.	8cc\	zbli-	.
.	.	.	16b-\	-ża	.
.	.	.	16r;	.	.
*	*tremolo	*	*	*	*
!	!LO:TX:a:i:t=trem&colon;	!	!	!	!
4D 4DD/	32f#XLLL 32d 32c/	.	8.b-\	drzę	.
.	32f# 32d 32c/	.	.	.	.
.	32f# 32d 32c/	.	.	.	.
.	32f# 32d 32c/	.	.	.	.
.	32f# 32d 32c/	.	.	.	.
.	32f# 32d 32c/	.	.	.	.
.	32f# 32d 32c/	.	16an/	od	.
.	32f#JJJ 32d 32c/	.	.	.	.
2G 2GG/	32gLLL 32d 32B-/	<	8a/	trwo-	.
.	32g 32d 32B-/	.	.	.	.
.	32g 32d 32B-/	.	.	.	.
.	32g 32d 32B-/	.	.	.	.
.	32g 32d 32B-/	.	16g/	-gi	.
.	32g 32d 32B-/	.	.	.	.
.	32g 32d 32B-/	.	16r	.	.
.	32g 32d 32B-/	.	.	.	.
.	32g 32d 32B-/	.	8.gg\	ah!	.
.	32g 32d 32B-/	.	.	.	.
.	32g 32d 32B-/	.	.	.	.
.	32g 32d 32B-/	.	.	.	.
.	32g 32d 32B-/	.	.	.	.
.	32g 32d 32B-/	.	.	.	.
.	32g 32d 32B-/	.	16gg\	li-	.
.	32gJJJ 32d 32B-/	[[	.	.	.
!!LO:LB:g=original
=175	=175	=175	=175	=175	=175
*tremolo	*	*	*	*	*
!	!LO:TX:a:i:t=trem&colon;	!	!	!	!
32E-XLLL 32EE-X\	32gLLL 32c#X 32G</	.	4.gg\	-to-	.
32E- 32EE-\	32g 32c# 32G</	.	.	.	.
32E- 32EE-\	32g 32c# 32G</	.	.	.	.
32E- 32EE-\	32g 32c# 32G</	.	.	.	.
32E- 32EE-\	32g 32c# 32G</	>	.	.	.
32E- 32EE-\	32g 32c# 32G</	.	.	.	.
32E- 32EE-\	32g 32c# 32G</	.	.	.	.
32E- 32EE-\	32g 32c# 32G</	.	.	.	.
32E- 32EE-\	32g 32c# 32G</	.	.	.	.
32E- 32EE-\	32g 32c# 32G</	.	.	.	.
32E- 32EE-\	32g 32c# 32G</	.	.	.	.
32E- 32EE-\	32g 32c# 32G</	.	.	.	.
32E- 32EE-\	32g 32c# 32G</	.	8g/	-ści	.
32E- 32EE-\	32g 32c# 32G</	.	.	.	.
32E- 32EE-\	32g 32c# 32G</	.	.	.	.
32E- 32EE-\	32g 32c# 32G</	.	.	.	.
32E- 32EE-\	32g 32c# 32G</	.	(4b-\	do-	.
32E- 32EE-\	32g 32c# 32G</	.	.	.	.
32E- 32EE-\	32g 32c# 32G</	.	.	.	.
32E- 32EE-\	32g 32c# 32G</	.	.	.	.
32E- 32EE-\	32g 32c# 32G</	.	.	.	.
32E- 32EE-\	32g 32c# 32G</	.	.	.	.
32E- 32EE-\	32g 32c# 32G</	.	.	.	.
32E- 32EE-\	32g 32c# 32G</	.	.	.	.
32E- 32EE-\	32g 32c# 32G</	.	8a/)	.	.
32E- 32EE-\	32g 32c# 32G</	.	.	.	.
32E- 32EE-\	32g 32c# 32G</	.	.	.	.
32E- 32EE-\	32g 32c# 32G</	.	.	.	.
32E- 32EE-\	32g 32c# 32G</	.	8g/	-bry	.
32E- 32EE-\	32g 32c# 32G</	.	.	.	.
32E- 32EE-\	32g 32c# 32G</	.	.	.	.
32E-JJJ 32EE-\	32gJJJ 32c# 32G</	]	.	.	.
*Xtremolo	*Xtremolo	*	*	*	*
=176	=176	=176	=176	=176	=176
!	!	!	!LO:TX:a:B:t=Lento.	!	!
4D 4DD\	4f#X 4d 4A</	.	2dd\	Bo-	.
4r	4r	.	.	.	.
.	.	.	(16qqff/LL	.	.
.	.	.	16qqee-X/JJ	.	.
2r;	2r;	.	4dd;\)	-że	.
.	.	.	4r	.	.
*	*	*	*clefF4	*	*
=177||	=177||	=177||	=177||	=177||	=177||
!	!	!	!LO:TX:a:B:t=PEREZ.	!	!
2r	2r	.	8.d\	Héj	.
.	.	.	16F#X\	Gu-	.
.	.	.	8A\	-zma-	.
.	.	.	16D\	-nie	.
.	.	.	16r	.	.
4D 4DD/	4ddd 4aa 4ff#X 4dd\	f	4r	.	.
4r	4r	.	8.F#\	wódz	.
.	.	.	16E\	cię	.
!!LO:LB:g=original
=178	=178	=178	=178	=178	=178
1r	1r	.	8E\	wzy-	.
.	.	.	16D\	-wa	.
.	.	.	16r	.	.
.	.	.	8.D\	chce	.
.	.	.	16E\	po-	.
.	.	.	8F#X\	-mó-	.
.	.	.	8G\	-wić	.
.	.	.	8A\	z_to-	.
.	.	.	8Bn\	-bą	.
=179	=179	=179	=179	=179	=179
4r	4r	.	4G\	sam	.
4G 4GG/	4ggg 4ddd 4bbn 4gg\	sf	4r	.	.
*	*	*	*clefF4	*	*
!	!	!	!LO:TX:a:B:t=DON ALONZO.:rj	!	!
2r	2r	.	4Bn\	I-	.
.	.	.	8G\	-dę	.
.	.	.	8r;	.	.
*	*	*	*clefG2	*	*
=180	=180	=180	=180	=180	=180
!	!LO:TX:b:B:t=Agitato a tempo.	!	!LO:TX:a:B:t=DONNA MARYA.	!	!
1r	1r	.	4r	.	.
.	.	.	8r	.	.
.	.	.	8dd\	O!	.
.	.	.	4dd\	ja	.
.	.	.	8.dd\	nie-	.
.	.	.	16dd\	-szczę-	.
*clefG2	*	*	*	*	*
!!LO:LB:g=original
=181	=181	=181	=181	=181	=181
!	!LO:S:s=2:note:problem:note-level slur	!	!	!	!
(2f#X^>/	(2ee-X (>2cc (2a^<\	f	2ee-X^\	-śli-	.
4g/)	4dd 4b-\)))	p	8dd\	-wa	.
.	.	.	8r	.	.
4r	4r	.	8.dd\	cios	.
.	.	.	16dd\	nie-	.
*clefF4	*	*	*	*	*
=182	=182	=182	=182	=182	=182
1Bn 1F 1GG#X	1d	f >]	4.ff\	-chy-	.
.	.	.	8ff\	-bny	.
.	.	.	4een\	gro-	.
.	.	.	4dd\	-zi	.
=183||	=183||	=183||	=183||	=183||	=183||
*^	*	*	*	*	*
!	!	!LO:TX:a:B:t=Agitato ma non troppo.	!	!	!	!
4AA\	4ryy	8c#XL 8A< 8E</	>	4a/	nam	.
.	.	16A/L	.	.	.	.
.	.	16a/JJ	.	.	.	.
*	*	*tremolo	*	*	*	*
!	!	!	!	!LO:TX:a:t=(DON ŻUAN wchodzi)	!	!
4r	4ryy	16A/LL	]	4r	.	.
.	.	16a/	<	.	.	.
.	.	16A/	.	.	.	.
.	.	16a/	.	.	.	.
!LO:TX:a:t=Fag.:rj	!	!	!	!	!	!
(>2G 2E/	[2AA\	16A/	.	2r	.	.
.	.	16a/	.	.	.	.
.	.	16A/	.	.	.	.
.	.	16a/	.	.	.	.
.	.	16A/	.	.	.	.
.	.	16a/	.	.	.	.
.	.	16A/	.	.	.	.
.	.	16a/JJ	.	.	.	.
=184	=184	=184	=184	=184	=184	=184
2F 2D/	1AA]	16A/LL	[	1r	.	.
.	.	16a/	.	.	.	.
.	.	16A/	.	.	.	.
.	.	16a/	.	.	.	.
.	.	16A/	.	.	.	.
.	.	16a/	.	.	.	.
.	.	16A/	.	.	.	.
.	.	16a/JJ	.	.	.	.
2E 2C#X/)	.	16A/LL	.	.	.	.
.	.	16a/	.	.	.	.
.	.	16A/	.	.	.	.
.	.	16a/	.	.	.	.
.	.	16A/	.	.	.	.
.	.	16a/	.	.	.	.
.	.	16A/	.	.	.	.
.	.	16a/JJ	.	.	.	.
*	*	*Xtremolo	*	*	*	*
*v	*v	*	*	*	*	*
==	==	==	==	==	==
*-	*-	*-	*-	*-	*-
!!!system-decoration: <vox>{(klav)}
!!!RDF**kern: > = above
!!!RDF**kern: < = below
!!!ENC: Berenika Jozajtis
!!!END: 2022-09-11
!!!ENC: Andrzej Kubiczek
!!!END: 2022-09-20
